(G-CODE GENERATED BY FLATCAM v8.994 - www.flatcam.org - Version Date: 2020/11/7)

(Name: impedance_testboard-B_Cu.gbr_iso_combined_cnc)
(Type: G-code from Geometry)
(Units: MM)

(Created on Wednesday, 13 April 2022 at 08:01)

(This preprocessor is the default preprocessor used by FlatCAM.)
(It is made to work with MACH3 compatible motion controllers.)

(TOOL DIAMETER: 0.249 mm)
(Feedrate_XY: 120.0 mm/min)
(Feedrate_Z: 60.0 mm/min)
(Feedrate rapids 1500.0 mm/min)

(Z_Cut: -0.0355 mm)
(Z_Move: 2.0 mm)
(Z Start: None mm)
(Z End: 15.0 mm)
(X,Y End: None mm)
(Steps per circle: 64)
(Preprocessor Geometry: default)

(X range:   -0.1140 ...   99.1740  mm)
(Y range:   -0.1140 ...   69.9640  mm)

(Spindle Speed: 0.0 RPM)
G21
G90
G94

G01 F120.00

M5
G00 Z15.0000
G00 X0.0000 Y0.0000
T1
M6    
(MSG, Change to Tool Dia = 0.2490)
M0
G00 Z15.0000

M03
G01 F120.00
G00 X16.1399 Y11.4275
G01 F60.00
G01 Z-0.0355
G01 F120.00
G01 X16.1675 Y11.3445
G01 X16.2332 Y11.2422
G01 X16.2681 Y11.2020
G01 X16.3583 Y11.1238
G01 X16.4668 Y11.0742
G01 X16.5179 Y11.0593
G01 X16.6449 Y11.0410
G01 X82.4173 Y11.0410
G01 X82.5132 Y11.0513
G01 X82.5525 Y11.0599
G01 X82.6355 Y11.0875
G01 X82.7378 Y11.1532
G01 X82.7780 Y11.1881
G01 X82.8562 Y11.2783
G01 X82.9057 Y11.3868
G01 X82.9207 Y11.4379
G01 X82.9390 Y11.5649
G01 X82.9390 Y29.0773
G01 X82.9287 Y29.1732
G01 X82.9201 Y29.2125
G01 X82.8925 Y29.2955
G01 X82.8268 Y29.3978
G01 X82.7919 Y29.4380
G01 X82.7017 Y29.5162
G01 X82.5932 Y29.5658
G01 X82.5421 Y29.5807
G01 X82.4151 Y29.5990
G01 X16.6427 Y29.5990
G01 X16.5468 Y29.5887
G01 X16.5075 Y29.5801
G01 X16.4245 Y29.5525
G01 X16.3222 Y29.4868
G01 X16.2820 Y29.4519
G01 X16.2038 Y29.3617
G01 X16.1543 Y29.2532
G01 X16.1393 Y29.2021
G01 X16.1210 Y29.0751
G01 X16.1210 Y11.5627
G01 X16.1313 Y11.4668
G01 X16.1399 Y11.4275
G00 Z2.0000
G00 X16.2601 Y11.4605
G01 F60.00
G01 Z-0.0355
G01 F120.00
G01 X16.2807 Y11.3987
G01 X16.3332 Y11.3170
G01 X16.3563 Y11.2903
G01 X16.4263 Y11.2296
G01 X16.5104 Y11.1912
G01 X16.5444 Y11.1812
G01 X16.6538 Y11.1655
G01 X82.4107 Y11.1655
G01 X82.4933 Y11.1744
G01 X82.5195 Y11.1801
G01 X82.5813 Y11.2007
G01 X82.6630 Y11.2532
G01 X82.6897 Y11.2763
G01 X82.7504 Y11.3463
G01 X82.7888 Y11.4304
G01 X82.7988 Y11.4644
G01 X82.8145 Y11.5738
G01 X82.8145 Y29.0707
G01 X82.8056 Y29.1533
G01 X82.7999 Y29.1795
G01 X82.7793 Y29.2413
G01 X82.7268 Y29.3230
G01 X82.7037 Y29.3497
G01 X82.6337 Y29.4104
G01 X82.5496 Y29.4488
G01 X82.5156 Y29.4588
G01 X82.4062 Y29.4745
G01 X16.6493 Y29.4745
G01 X16.5667 Y29.4656
G01 X16.5405 Y29.4599
G01 X16.4787 Y29.4393
G01 X16.3970 Y29.3868
G01 X16.3703 Y29.3637
G01 X16.3096 Y29.2937
G01 X16.2712 Y29.2096
G01 X16.2612 Y29.1756
G01 X16.2455 Y29.0662
G01 X16.2455 Y11.5693
G01 X16.2544 Y11.4867
G01 X16.2601 Y11.4605
G00 Z2.0000
G00 X16.3858 Y29.0929
G01 F60.00
G01 Z-0.0355
G01 F120.00
G01 X16.3855 Y29.0840
G01 X16.3855 Y11.5530
G01 X16.3861 Y11.5442
G01 X16.3877 Y11.5324
G01 X16.3997 Y11.4772
G01 X16.4030 Y11.4652
G01 X16.4087 Y11.4507
G01 X16.4162 Y11.4371
G01 X16.4233 Y11.4269
G01 X16.4758 Y11.3662
G01 X16.4846 Y11.3574
G01 X16.4942 Y11.3496
G01 X16.5045 Y11.3428
G01 X16.5183 Y11.3358
G01 X16.5328 Y11.3305
G01 X16.6038 Y11.3097
G01 X16.6124 Y11.3077
G01 X16.6212 Y11.3064
G01 X16.6360 Y11.3055
G01 X82.4240 Y11.3055
G01 X82.4358 Y11.3061
G01 X82.4476 Y11.3077
G01 X82.5028 Y11.3197
G01 X82.5148 Y11.3230
G01 X82.5293 Y11.3287
G01 X82.5429 Y11.3362
G01 X82.5531 Y11.3433
G01 X82.6115 Y11.3938
G01 X82.6205 Y11.4023
G01 X82.6285 Y11.4117
G01 X82.6356 Y11.4219
G01 X82.6429 Y11.4355
G01 X82.6485 Y11.4498
G01 X82.6703 Y11.5238
G01 X82.6732 Y11.5383
G01 X82.6742 Y11.5471
G01 X82.6745 Y11.5560
G01 X82.6745 Y29.0870
G01 X82.6739 Y29.0958
G01 X82.6723 Y29.1076
G01 X82.6603 Y29.1628
G01 X82.6560 Y29.1778
G01 X82.6513 Y29.1893
G01 X82.6455 Y29.2003
G01 X82.6367 Y29.2131
G01 X82.5842 Y29.2738
G01 X82.5754 Y29.2826
G01 X82.5633 Y29.2922
G01 X82.5528 Y29.2987
G01 X82.5417 Y29.3042
G01 X82.5272 Y29.3095
G01 X82.4562 Y29.3303
G01 X82.4417 Y29.3332
G01 X82.4329 Y29.3342
G01 X82.4240 Y29.3345
G01 X16.6360 Y29.3345
G01 X16.6242 Y29.3339
G01 X16.6124 Y29.3323
G01 X16.5572 Y29.3203
G01 X16.5422 Y29.3160
G01 X16.5307 Y29.3113
G01 X16.5197 Y29.3055
G01 X16.5069 Y29.2967
G01 X16.4439 Y29.2420
G01 X16.4354 Y29.2331
G01 X16.4261 Y29.2207
G01 X16.4184 Y29.2073
G01 X16.4135 Y29.1960
G01 X16.4105 Y29.1872
G01 X16.3897 Y29.1162
G01 X16.3872 Y29.1046
G01 X16.3858 Y29.0929
G00 Z2.0000
G00 X16.2616 Y29.1018
G01 F60.00
G01 Z-0.0355
G01 F120.00
G01 X16.2610 Y29.0840
G01 X16.2611 Y11.5501
G01 X16.2616 Y11.5382
G01 X16.2628 Y11.5264
G01 X16.2655 Y11.5089
G01 X16.2795 Y11.4447
G01 X16.2827 Y11.4327
G01 X16.2866 Y11.4208
G01 X16.2910 Y11.4092
G01 X16.2960 Y11.3978
G01 X16.3016 Y11.3867
G01 X16.3077 Y11.3758
G01 X16.3143 Y11.3653
G01 X16.3215 Y11.3552
G01 X16.3332 Y11.3406
G01 X16.3797 Y11.2869
G01 X16.3924 Y11.2734
G01 X16.4013 Y11.2649
G01 X16.4107 Y11.2569
G01 X16.4205 Y11.2493
G01 X16.4359 Y11.2389
G01 X16.4465 Y11.2326
G01 X16.4575 Y11.2268
G01 X16.4687 Y11.2216
G01 X16.4801 Y11.2170
G01 X16.4977 Y11.2111
G01 X16.5716 Y11.1895
G01 X16.5889 Y11.1855
G01 X16.6006 Y11.1835
G01 X16.6182 Y11.1816
G01 X16.6360 Y11.1810
G01 X82.4240 Y11.1810
G01 X82.4358 Y11.1813
G01 X82.4477 Y11.1821
G01 X82.4594 Y11.1835
G01 X82.4711 Y11.1855
G01 X82.5353 Y11.1995
G01 X82.5533 Y11.2046
G01 X82.5650 Y11.2087
G01 X82.5765 Y11.2134
G01 X82.5878 Y11.2187
G01 X82.5988 Y11.2246
G01 X82.6095 Y11.2310
G01 X82.6198 Y11.2379
G01 X82.6298 Y11.2453
G01 X82.6394 Y11.2532
G01 X82.6931 Y11.2997
G01 X82.7066 Y11.3124
G01 X82.7151 Y11.3213
G01 X82.7231 Y11.3307
G01 X82.7343 Y11.3456
G01 X82.7411 Y11.3559
G01 X82.7474 Y11.3665
G01 X82.7532 Y11.3775
G01 X82.7584 Y11.3887
G01 X82.7630 Y11.4001
G01 X82.7689 Y11.4177
G01 X82.7905 Y11.4916
G01 X82.7945 Y11.5089
G01 X82.7972 Y11.5264
G01 X82.7987 Y11.5442
G01 X82.7990 Y11.5560
G01 X82.7989 Y29.0899
G01 X82.7979 Y29.1077
G01 X82.7965 Y29.1194
G01 X82.7945 Y29.1311
G01 X82.7805 Y29.1953
G01 X82.7773 Y29.2073
G01 X82.7734 Y29.2192
G01 X82.7690 Y29.2308
G01 X82.7640 Y29.2422
G01 X82.7554 Y29.2588
G01 X82.7490 Y29.2695
G01 X82.7421 Y29.2798
G01 X82.7347 Y29.2898
G01 X82.7268 Y29.2994
G01 X82.6803 Y29.3531
G01 X82.6676 Y29.3666
G01 X82.6587 Y29.3751
G01 X82.6493 Y29.3831
G01 X82.6344 Y29.3943
G01 X82.6241 Y29.4011
G01 X82.6135 Y29.4074
G01 X82.6025 Y29.4132
G01 X82.5913 Y29.4184
G01 X82.5799 Y29.4230
G01 X82.5623 Y29.4289
G01 X82.4884 Y29.4505
G01 X82.4711 Y29.4545
G01 X82.4536 Y29.4572
G01 X82.4358 Y29.4587
G01 X82.4240 Y29.4590
G01 X16.6360 Y29.4590
G01 X16.6242 Y29.4587
G01 X16.6123 Y29.4579
G01 X16.5947 Y29.4556
G01 X16.5307 Y29.4419
G01 X16.5127 Y29.4373
G01 X16.5008 Y29.4334
G01 X16.4892 Y29.4290
G01 X16.4778 Y29.4240
G01 X16.4667 Y29.4184
G01 X16.4558 Y29.4123
G01 X16.4453 Y29.4057
G01 X16.4302 Y29.3947
G01 X16.4206 Y29.3868
G01 X16.3669 Y29.3403
G01 X16.3578 Y29.3320
G01 X16.3491 Y29.3232
G01 X16.3408 Y29.3140
G01 X16.3330 Y29.3044
G01 X16.3222 Y29.2893
G01 X16.3157 Y29.2788
G01 X16.3096 Y29.2680
G01 X16.3042 Y29.2570
G01 X16.2992 Y29.2456
G01 X16.2949 Y29.2340
G01 X16.2911 Y29.2223
G01 X16.2695 Y29.1484
G01 X16.2667 Y29.1369
G01 X16.2644 Y29.1253
G01 X16.2628 Y29.1136
G01 X16.2616 Y29.1018
G00 Z2.0000
G00 X26.9890 Y39.1257
G01 F60.00
G01 Z-0.0355
G01 F120.00
G01 X27.1168 Y38.8542
G01 X27.2775 Y38.6009
G01 X27.4687 Y38.3698
G01 X27.6874 Y38.1645
G01 X27.9301 Y37.9881
G01 X28.1929 Y37.8436
G01 X28.4718 Y37.7332
G01 X28.7624 Y37.6586
G01 X29.0600 Y37.6210
G01 X29.3600 Y37.6210
G01 X29.6576 Y37.6586
G01 X29.9482 Y37.7332
G01 X30.2271 Y37.8436
G01 X30.4899 Y37.9881
G01 X30.7326 Y38.1645
G01 X30.9513 Y38.3698
G01 X31.1425 Y38.6009
G01 X31.3032 Y38.8542
G01 X31.4310 Y39.1257
G01 X31.5237 Y39.4110
G01 X31.5799 Y39.7056
G01 X31.5987 Y40.0050
G01 X31.5799 Y40.3044
G01 X31.5237 Y40.5990
G01 X31.4310 Y40.8843
G01 X31.3032 Y41.1558
G01 X31.1425 Y41.4091
G01 X30.9513 Y41.6402
G01 X30.7326 Y41.8455
G01 X30.4899 Y42.0219
G01 X30.2271 Y42.1664
G01 X29.9482 Y42.2768
G01 X29.6576 Y42.3514
G01 X29.3600 Y42.3890
G01 X29.0600 Y42.3890
G01 X28.7624 Y42.3514
G01 X28.4718 Y42.2768
G01 X28.1929 Y42.1664
G01 X27.9301 Y42.0219
G01 X27.6874 Y41.8455
G01 X27.4687 Y41.6402
G01 X27.2775 Y41.4091
G01 X27.1168 Y41.1558
G01 X26.9890 Y40.8843
G01 X26.8963 Y40.5990
G01 X26.8401 Y40.3044
G01 X26.8213 Y40.0050
G01 X26.8401 Y39.7056
G01 X26.8963 Y39.4110
G01 X26.9890 Y39.1257
G00 Z2.0000
G00 X27.1050 Y39.1716
G01 F60.00
G01 Z-0.0355
G01 F120.00
G01 X27.2261 Y38.9143
G01 X27.3784 Y38.6743
G01 X27.5596 Y38.4552
G01 X27.7669 Y38.2606
G01 X27.9969 Y38.0935
G01 X28.2461 Y37.9565
G01 X28.5104 Y37.8518
G01 X28.7858 Y37.7811
G01 X29.0678 Y37.7455
G01 X29.3522 Y37.7455
G01 X29.6342 Y37.7811
G01 X29.9096 Y37.8518
G01 X30.1739 Y37.9565
G01 X30.4231 Y38.0935
G01 X30.6531 Y38.2606
G01 X30.8604 Y38.4552
G01 X31.0416 Y38.6743
G01 X31.1939 Y38.9143
G01 X31.3150 Y39.1716
G01 X31.4028 Y39.4420
G01 X31.4561 Y39.7212
G01 X31.4740 Y40.0050
G01 X31.4561 Y40.2888
G01 X31.4028 Y40.5680
G01 X31.3150 Y40.8384
G01 X31.1939 Y41.0957
G01 X31.0416 Y41.3357
G01 X30.8604 Y41.5548
G01 X30.6531 Y41.7494
G01 X30.4231 Y41.9165
G01 X30.1739 Y42.0535
G01 X29.9096 Y42.1582
G01 X29.6342 Y42.2289
G01 X29.3522 Y42.2645
G01 X29.0678 Y42.2645
G01 X28.7858 Y42.2289
G01 X28.5104 Y42.1582
G01 X28.2461 Y42.0535
G01 X27.9969 Y41.9165
G01 X27.7669 Y41.7494
G01 X27.5596 Y41.5548
G01 X27.3784 Y41.3357
G01 X27.2261 Y41.0957
G01 X27.1050 Y40.8384
G01 X27.0172 Y40.5680
G01 X26.9639 Y40.2888
G01 X26.9460 Y40.0050
G01 X26.9639 Y39.7212
G01 X27.0172 Y39.4420
G01 X27.1050 Y39.1716
G00 Z2.0000
G00 X31.3345 Y40.0019
G01 F60.00
G01 Z-0.0355
G01 F120.00
G01 X31.3343 Y40.0111
G01 X31.3243 Y40.2132
G01 X31.2937 Y40.4195
G01 X31.2430 Y40.6217
G01 X31.1728 Y40.8180
G01 X31.0836 Y41.0065
G01 X30.9765 Y41.1853
G01 X30.8523 Y41.3528
G01 X30.7122 Y41.5072
G01 X30.5578 Y41.6473
G01 X30.3903 Y41.7715
G01 X30.2115 Y41.8786
G01 X30.0230 Y41.9678
G01 X29.8267 Y42.0380
G01 X29.6245 Y42.0887
G01 X29.4182 Y42.1193
G01 X29.2100 Y42.1295
G01 X29.0018 Y42.1193
G01 X28.7955 Y42.0887
G01 X28.5933 Y42.0380
G01 X28.3970 Y41.9678
G01 X28.2085 Y41.8786
G01 X28.0297 Y41.7715
G01 X27.8622 Y41.6473
G01 X27.7078 Y41.5072
G01 X27.5677 Y41.3528
G01 X27.4435 Y41.1853
G01 X27.3364 Y41.0065
G01 X27.2472 Y40.8180
G01 X27.1770 Y40.6217
G01 X27.1263 Y40.4195
G01 X27.0957 Y40.2132
G01 X27.0855 Y40.0050
G01 X27.0957 Y39.7968
G01 X27.1263 Y39.5905
G01 X27.1770 Y39.3883
G01 X27.2472 Y39.1920
G01 X27.3364 Y39.0035
G01 X27.4435 Y38.8247
G01 X27.5677 Y38.6572
G01 X27.7078 Y38.5028
G01 X27.8622 Y38.3627
G01 X28.0297 Y38.2385
G01 X28.2085 Y38.1314
G01 X28.3970 Y38.0422
G01 X28.5933 Y37.9720
G01 X28.7955 Y37.9213
G01 X29.0018 Y37.8907
G01 X29.2100 Y37.8805
G01 X29.4182 Y37.8907
G01 X29.6245 Y37.9213
G01 X29.8267 Y37.9720
G01 X30.0230 Y38.0422
G01 X30.2115 Y38.1314
G01 X30.3903 Y38.2385
G01 X30.5578 Y38.3627
G01 X30.7122 Y38.5028
G01 X30.8523 Y38.6572
G01 X30.9765 Y38.8247
G01 X31.0836 Y39.0035
G01 X31.1728 Y39.1920
G01 X31.2430 Y39.3883
G01 X31.2937 Y39.5905
G01 X31.3243 Y39.7968
G01 X31.3345 Y40.0019
G00 Z2.0000
G00 X31.4589 Y39.9989
G01 F60.00
G01 Z-0.0355
G01 F120.00
G01 X31.4587 Y40.0172
G01 X31.4491 Y40.2133
G01 X31.4482 Y40.2254
G01 X31.4467 Y40.2376
G01 X31.4179 Y40.4317
G01 X31.4158 Y40.4438
G01 X31.4131 Y40.4557
G01 X31.3654 Y40.6461
G01 X31.3622 Y40.6579
G01 X31.3583 Y40.6695
G01 X31.2922 Y40.8543
G01 X31.2878 Y40.8657
G01 X31.2829 Y40.8768
G01 X31.1989 Y41.0543
G01 X31.1934 Y41.0652
G01 X31.1874 Y41.0758
G01 X31.0865 Y41.2442
G01 X31.0800 Y41.2545
G01 X31.0729 Y41.2645
G01 X30.9560 Y41.4221
G01 X30.9485 Y41.4318
G01 X30.9405 Y41.4410
G01 X30.8087 Y41.5864
G01 X30.8003 Y41.5953
G01 X30.7914 Y41.6037
G01 X30.6460 Y41.7355
G01 X30.6368 Y41.7435
G01 X30.6271 Y41.7510
G01 X30.4695 Y41.8679
G01 X30.4595 Y41.8750
G01 X30.4492 Y41.8815
G01 X30.2808 Y41.9824
G01 X30.2702 Y41.9884
G01 X30.2593 Y41.9939
G01 X30.0818 Y42.0779
G01 X30.0707 Y42.0828
G01 X30.0593 Y42.0872
G01 X29.8745 Y42.1533
G01 X29.8629 Y42.1572
G01 X29.8511 Y42.1604
G01 X29.6607 Y42.2081
G01 X29.6488 Y42.2108
G01 X29.6367 Y42.2129
G01 X29.4426 Y42.2417
G01 X29.4304 Y42.2432
G01 X29.4183 Y42.2441
G01 X29.2222 Y42.2537
G01 X29.2100 Y42.2540
G01 X29.1978 Y42.2537
G01 X29.0017 Y42.2441
G01 X28.9896 Y42.2432
G01 X28.9774 Y42.2417
G01 X28.7833 Y42.2129
G01 X28.7712 Y42.2108
G01 X28.7593 Y42.2081
G01 X28.5689 Y42.1604
G01 X28.5571 Y42.1572
G01 X28.5455 Y42.1533
G01 X28.3607 Y42.0872
G01 X28.3493 Y42.0828
G01 X28.3382 Y42.0779
G01 X28.1607 Y41.9939
G01 X28.1498 Y41.9884
G01 X28.1392 Y41.9824
G01 X27.9708 Y41.8815
G01 X27.9605 Y41.8750
G01 X27.9505 Y41.8679
G01 X27.7929 Y41.7510
G01 X27.7832 Y41.7435
G01 X27.7740 Y41.7355
G01 X27.6286 Y41.6037
G01 X27.6197 Y41.5953
G01 X27.6113 Y41.5864
G01 X27.4795 Y41.4410
G01 X27.4715 Y41.4318
G01 X27.4640 Y41.4221
G01 X27.3471 Y41.2645
G01 X27.3400 Y41.2545
G01 X27.3335 Y41.2442
G01 X27.2326 Y41.0758
G01 X27.2266 Y41.0652
G01 X27.2211 Y41.0543
G01 X27.1371 Y40.8768
G01 X27.1322 Y40.8657
G01 X27.1278 Y40.8543
G01 X27.0617 Y40.6695
G01 X27.0578 Y40.6579
G01 X27.0546 Y40.6461
G01 X27.0069 Y40.4557
G01 X27.0042 Y40.4438
G01 X27.0021 Y40.4317
G01 X26.9733 Y40.2376
G01 X26.9718 Y40.2254
G01 X26.9709 Y40.2133
G01 X26.9613 Y40.0172
G01 X26.9610 Y40.0050
G01 X26.9613 Y39.9928
G01 X26.9709 Y39.7967
G01 X26.9718 Y39.7846
G01 X26.9733 Y39.7724
G01 X27.0021 Y39.5783
G01 X27.0042 Y39.5662
G01 X27.0069 Y39.5543
G01 X27.0546 Y39.3639
G01 X27.0578 Y39.3521
G01 X27.0617 Y39.3405
G01 X27.1278 Y39.1557
G01 X27.1322 Y39.1443
G01 X27.1371 Y39.1332
G01 X27.2211 Y38.9557
G01 X27.2266 Y38.9448
G01 X27.2326 Y38.9342
G01 X27.3335 Y38.7658
G01 X27.3400 Y38.7555
G01 X27.3471 Y38.7455
G01 X27.4640 Y38.5879
G01 X27.4715 Y38.5782
G01 X27.4795 Y38.5690
G01 X27.6113 Y38.4236
G01 X27.6197 Y38.4147
G01 X27.6286 Y38.4063
G01 X27.7740 Y38.2745
G01 X27.7832 Y38.2665
G01 X27.7929 Y38.2590
G01 X27.9505 Y38.1421
G01 X27.9605 Y38.1350
G01 X27.9708 Y38.1285
G01 X28.1392 Y38.0276
G01 X28.1498 Y38.0216
G01 X28.1607 Y38.0161
G01 X28.3382 Y37.9321
G01 X28.3493 Y37.9272
G01 X28.3607 Y37.9228
G01 X28.5455 Y37.8567
G01 X28.5571 Y37.8528
G01 X28.5689 Y37.8496
G01 X28.7593 Y37.8019
G01 X28.7712 Y37.7992
G01 X28.7833 Y37.7971
G01 X28.9774 Y37.7683
G01 X28.9896 Y37.7668
G01 X29.0017 Y37.7659
G01 X29.1978 Y37.7563
G01 X29.2100 Y37.7560
G01 X29.2222 Y37.7563
G01 X29.4183 Y37.7659
G01 X29.4304 Y37.7668
G01 X29.4426 Y37.7683
G01 X29.6367 Y37.7971
G01 X29.6488 Y37.7992
G01 X29.6607 Y37.8019
G01 X29.8511 Y37.8496
G01 X29.8629 Y37.8528
G01 X29.8745 Y37.8567
G01 X30.0593 Y37.9228
G01 X30.0707 Y37.9272
G01 X30.0818 Y37.9321
G01 X30.2593 Y38.0161
G01 X30.2702 Y38.0216
G01 X30.2808 Y38.0276
G01 X30.4492 Y38.1285
G01 X30.4595 Y38.1350
G01 X30.4695 Y38.1421
G01 X30.6271 Y38.2590
G01 X30.6368 Y38.2665
G01 X30.6460 Y38.2745
G01 X30.7914 Y38.4063
G01 X30.8003 Y38.4147
G01 X30.8087 Y38.4236
G01 X30.9405 Y38.5690
G01 X30.9485 Y38.5782
G01 X30.9560 Y38.5879
G01 X31.0729 Y38.7455
G01 X31.0800 Y38.7555
G01 X31.0865 Y38.7658
G01 X31.1874 Y38.9342
G01 X31.1934 Y38.9448
G01 X31.1989 Y38.9557
G01 X31.2829 Y39.1332
G01 X31.2878 Y39.1443
G01 X31.2922 Y39.1557
G01 X31.3583 Y39.3405
G01 X31.3622 Y39.3521
G01 X31.3654 Y39.3639
G01 X31.4131 Y39.5543
G01 X31.4158 Y39.5662
G01 X31.4179 Y39.5783
G01 X31.4467 Y39.7724
G01 X31.4482 Y39.7846
G01 X31.4491 Y39.7967
G01 X31.4589 Y39.9989
G00 Z2.0000
G00 X47.3090 Y39.1257
G01 F60.00
G01 Z-0.0355
G01 F120.00
G01 X47.4368 Y38.8542
G01 X47.5975 Y38.6009
G01 X47.7887 Y38.3698
G01 X48.0074 Y38.1645
G01 X48.2501 Y37.9881
G01 X48.5129 Y37.8436
G01 X48.7918 Y37.7332
G01 X49.0824 Y37.6586
G01 X49.3800 Y37.6210
G01 X49.6800 Y37.6210
G01 X49.9776 Y37.6586
G01 X50.2682 Y37.7332
G01 X50.5471 Y37.8436
G01 X50.8099 Y37.9881
G01 X51.0526 Y38.1645
G01 X51.2713 Y38.3698
G01 X51.4625 Y38.6009
G01 X51.6232 Y38.8542
G01 X51.7510 Y39.1257
G01 X51.8437 Y39.4110
G01 X51.8999 Y39.7056
G01 X51.9187 Y40.0050
G01 X51.8999 Y40.3044
G01 X51.8437 Y40.5990
G01 X51.7510 Y40.8843
G01 X51.6232 Y41.1558
G01 X51.4625 Y41.4091
G01 X51.2713 Y41.6402
G01 X51.0526 Y41.8455
G01 X50.8099 Y42.0219
G01 X50.5471 Y42.1664
G01 X50.2682 Y42.2768
G01 X49.9776 Y42.3514
G01 X49.6800 Y42.3890
G01 X49.3800 Y42.3890
G01 X49.0824 Y42.3514
G01 X48.7918 Y42.2768
G01 X48.5129 Y42.1664
G01 X48.2501 Y42.0219
G01 X48.0074 Y41.8455
G01 X47.7887 Y41.6402
G01 X47.5975 Y41.4091
G01 X47.4368 Y41.1558
G01 X47.3090 Y40.8843
G01 X47.2163 Y40.5990
G01 X47.1601 Y40.3044
G01 X47.1413 Y40.0050
G01 X47.1601 Y39.7056
G01 X47.2163 Y39.4110
G01 X47.3090 Y39.1257
G00 Z2.0000
G00 X47.4250 Y39.1716
G01 F60.00
G01 Z-0.0355
G01 F120.00
G01 X47.5461 Y38.9143
G01 X47.6984 Y38.6743
G01 X47.8796 Y38.4552
G01 X48.0869 Y38.2606
G01 X48.3169 Y38.0935
G01 X48.5661 Y37.9565
G01 X48.8304 Y37.8518
G01 X49.1058 Y37.7811
G01 X49.3878 Y37.7455
G01 X49.6722 Y37.7455
G01 X49.9542 Y37.7811
G01 X50.2296 Y37.8518
G01 X50.4939 Y37.9565
G01 X50.7431 Y38.0935
G01 X50.9731 Y38.2606
G01 X51.1804 Y38.4552
G01 X51.3616 Y38.6743
G01 X51.5139 Y38.9143
G01 X51.6350 Y39.1716
G01 X51.7228 Y39.4420
G01 X51.7761 Y39.7212
G01 X51.7940 Y40.0050
G01 X51.7761 Y40.2888
G01 X51.7228 Y40.5680
G01 X51.6350 Y40.8384
G01 X51.5139 Y41.0957
G01 X51.3616 Y41.3357
G01 X51.1804 Y41.5548
G01 X50.9731 Y41.7494
G01 X50.7431 Y41.9165
G01 X50.4939 Y42.0535
G01 X50.2296 Y42.1582
G01 X49.9542 Y42.2289
G01 X49.6722 Y42.2645
G01 X49.3878 Y42.2645
G01 X49.1058 Y42.2289
G01 X48.8304 Y42.1582
G01 X48.5661 Y42.0535
G01 X48.3169 Y41.9165
G01 X48.0869 Y41.7494
G01 X47.8796 Y41.5548
G01 X47.6984 Y41.3357
G01 X47.5461 Y41.0957
G01 X47.4250 Y40.8384
G01 X47.3372 Y40.5680
G01 X47.2839 Y40.2888
G01 X47.2660 Y40.0050
G01 X47.2839 Y39.7212
G01 X47.3372 Y39.4420
G01 X47.4250 Y39.1716
G00 Z2.0000
G00 X51.6545 Y40.0019
G01 F60.00
G01 Z-0.0355
G01 F120.00
G01 X51.6543 Y40.0111
G01 X51.6443 Y40.2132
G01 X51.6137 Y40.4195
G01 X51.5630 Y40.6217
G01 X51.4928 Y40.8180
G01 X51.4036 Y41.0065
G01 X51.2965 Y41.1853
G01 X51.1723 Y41.3528
G01 X51.0322 Y41.5072
G01 X50.8778 Y41.6473
G01 X50.7103 Y41.7715
G01 X50.5315 Y41.8786
G01 X50.3430 Y41.9678
G01 X50.1467 Y42.0380
G01 X49.9445 Y42.0887
G01 X49.7382 Y42.1193
G01 X49.5300 Y42.1295
G01 X49.3218 Y42.1193
G01 X49.1155 Y42.0887
G01 X48.9133 Y42.0380
G01 X48.7170 Y41.9678
G01 X48.5285 Y41.8786
G01 X48.3497 Y41.7715
G01 X48.1822 Y41.6473
G01 X48.0278 Y41.5072
G01 X47.8877 Y41.3528
G01 X47.7635 Y41.1853
G01 X47.6564 Y41.0065
G01 X47.5672 Y40.8180
G01 X47.4970 Y40.6217
G01 X47.4463 Y40.4195
G01 X47.4157 Y40.2132
G01 X47.4055 Y40.0050
G01 X47.4157 Y39.7968
G01 X47.4463 Y39.5905
G01 X47.4970 Y39.3883
G01 X47.5672 Y39.1920
G01 X47.6564 Y39.0035
G01 X47.7635 Y38.8247
G01 X47.8877 Y38.6572
G01 X48.0278 Y38.5028
G01 X48.1822 Y38.3627
G01 X48.3497 Y38.2385
G01 X48.5285 Y38.1314
G01 X48.7170 Y38.0422
G01 X48.9133 Y37.9720
G01 X49.1155 Y37.9213
G01 X49.3218 Y37.8907
G01 X49.5300 Y37.8805
G01 X49.7382 Y37.8907
G01 X49.9445 Y37.9213
G01 X50.1467 Y37.9720
G01 X50.3430 Y38.0422
G01 X50.5315 Y38.1314
G01 X50.7103 Y38.2385
G01 X50.8778 Y38.3627
G01 X51.0322 Y38.5028
G01 X51.1723 Y38.6572
G01 X51.2965 Y38.8247
G01 X51.4036 Y39.0035
G01 X51.4928 Y39.1920
G01 X51.5630 Y39.3883
G01 X51.6137 Y39.5905
G01 X51.6443 Y39.7968
G01 X51.6545 Y40.0019
G00 Z2.0000
G00 X51.7789 Y39.9989
G01 F60.00
G01 Z-0.0355
G01 F120.00
G01 X51.7787 Y40.0172
G01 X51.7691 Y40.2133
G01 X51.7682 Y40.2254
G01 X51.7667 Y40.2376
G01 X51.7379 Y40.4317
G01 X51.7358 Y40.4438
G01 X51.7331 Y40.4557
G01 X51.6854 Y40.6461
G01 X51.6822 Y40.6579
G01 X51.6783 Y40.6695
G01 X51.6122 Y40.8543
G01 X51.6078 Y40.8657
G01 X51.6029 Y40.8768
G01 X51.5189 Y41.0543
G01 X51.5134 Y41.0652
G01 X51.5074 Y41.0758
G01 X51.4065 Y41.2442
G01 X51.4000 Y41.2545
G01 X51.3929 Y41.2645
G01 X51.2760 Y41.4221
G01 X51.2685 Y41.4318
G01 X51.2605 Y41.4410
G01 X51.1287 Y41.5864
G01 X51.1203 Y41.5953
G01 X51.1114 Y41.6037
G01 X50.9660 Y41.7355
G01 X50.9568 Y41.7435
G01 X50.9471 Y41.7510
G01 X50.7895 Y41.8679
G01 X50.7795 Y41.8750
G01 X50.7692 Y41.8815
G01 X50.6008 Y41.9824
G01 X50.5902 Y41.9884
G01 X50.5793 Y41.9939
G01 X50.4018 Y42.0779
G01 X50.3907 Y42.0828
G01 X50.3793 Y42.0872
G01 X50.1945 Y42.1533
G01 X50.1829 Y42.1572
G01 X50.1711 Y42.1604
G01 X49.9807 Y42.2081
G01 X49.9688 Y42.2108
G01 X49.9567 Y42.2129
G01 X49.7626 Y42.2417
G01 X49.7504 Y42.2432
G01 X49.7383 Y42.2441
G01 X49.5422 Y42.2537
G01 X49.5300 Y42.2540
G01 X49.5178 Y42.2537
G01 X49.3217 Y42.2441
G01 X49.3096 Y42.2432
G01 X49.2974 Y42.2417
G01 X49.1033 Y42.2129
G01 X49.0912 Y42.2108
G01 X49.0793 Y42.2081
G01 X48.8889 Y42.1604
G01 X48.8771 Y42.1572
G01 X48.8655 Y42.1533
G01 X48.6807 Y42.0872
G01 X48.6693 Y42.0828
G01 X48.6582 Y42.0779
G01 X48.4807 Y41.9939
G01 X48.4698 Y41.9884
G01 X48.4592 Y41.9824
G01 X48.2908 Y41.8815
G01 X48.2805 Y41.8750
G01 X48.2705 Y41.8679
G01 X48.1129 Y41.7510
G01 X48.1032 Y41.7435
G01 X48.0940 Y41.7355
G01 X47.9486 Y41.6037
G01 X47.9397 Y41.5953
G01 X47.9313 Y41.5864
G01 X47.7995 Y41.4410
G01 X47.7915 Y41.4318
G01 X47.7840 Y41.4221
G01 X47.6671 Y41.2645
G01 X47.6600 Y41.2545
G01 X47.6535 Y41.2442
G01 X47.5526 Y41.0758
G01 X47.5466 Y41.0652
G01 X47.5411 Y41.0543
G01 X47.4571 Y40.8768
G01 X47.4522 Y40.8657
G01 X47.4478 Y40.8543
G01 X47.3817 Y40.6695
G01 X47.3778 Y40.6579
G01 X47.3746 Y40.6461
G01 X47.3269 Y40.4557
G01 X47.3242 Y40.4438
G01 X47.3221 Y40.4317
G01 X47.2933 Y40.2376
G01 X47.2918 Y40.2254
G01 X47.2909 Y40.2133
G01 X47.2813 Y40.0172
G01 X47.2810 Y40.0050
G01 X47.2813 Y39.9928
G01 X47.2909 Y39.7967
G01 X47.2918 Y39.7846
G01 X47.2933 Y39.7724
G01 X47.3221 Y39.5783
G01 X47.3242 Y39.5662
G01 X47.3269 Y39.5543
G01 X47.3746 Y39.3639
G01 X47.3778 Y39.3521
G01 X47.3817 Y39.3405
G01 X47.4478 Y39.1557
G01 X47.4522 Y39.1443
G01 X47.4571 Y39.1332
G01 X47.5411 Y38.9557
G01 X47.5466 Y38.9448
G01 X47.5526 Y38.9342
G01 X47.6535 Y38.7658
G01 X47.6600 Y38.7555
G01 X47.6671 Y38.7455
G01 X47.7840 Y38.5879
G01 X47.7915 Y38.5782
G01 X47.7995 Y38.5690
G01 X47.9313 Y38.4236
G01 X47.9397 Y38.4147
G01 X47.9486 Y38.4063
G01 X48.0940 Y38.2745
G01 X48.1032 Y38.2665
G01 X48.1129 Y38.2590
G01 X48.2705 Y38.1421
G01 X48.2805 Y38.1350
G01 X48.2908 Y38.1285
G01 X48.4592 Y38.0276
G01 X48.4698 Y38.0216
G01 X48.4807 Y38.0161
G01 X48.6582 Y37.9321
G01 X48.6693 Y37.9272
G01 X48.6807 Y37.9228
G01 X48.8655 Y37.8567
G01 X48.8771 Y37.8528
G01 X48.8889 Y37.8496
G01 X49.0793 Y37.8019
G01 X49.0912 Y37.7992
G01 X49.1033 Y37.7971
G01 X49.2974 Y37.7683
G01 X49.3096 Y37.7668
G01 X49.3217 Y37.7659
G01 X49.5178 Y37.7563
G01 X49.5300 Y37.7560
G01 X49.5422 Y37.7563
G01 X49.7383 Y37.7659
G01 X49.7504 Y37.7668
G01 X49.7626 Y37.7683
G01 X49.9567 Y37.7971
G01 X49.9688 Y37.7992
G01 X49.9807 Y37.8019
G01 X50.1711 Y37.8496
G01 X50.1829 Y37.8528
G01 X50.1945 Y37.8567
G01 X50.3793 Y37.9228
G01 X50.3907 Y37.9272
G01 X50.4018 Y37.9321
G01 X50.5793 Y38.0161
G01 X50.5902 Y38.0216
G01 X50.6008 Y38.0276
G01 X50.7692 Y38.1285
G01 X50.7795 Y38.1350
G01 X50.7895 Y38.1421
G01 X50.9471 Y38.2590
G01 X50.9568 Y38.2665
G01 X50.9660 Y38.2745
G01 X51.1114 Y38.4063
G01 X51.1203 Y38.4147
G01 X51.1287 Y38.4236
G01 X51.2605 Y38.5690
G01 X51.2685 Y38.5782
G01 X51.2760 Y38.5879
G01 X51.3929 Y38.7455
G01 X51.4000 Y38.7555
G01 X51.4065 Y38.7658
G01 X51.5074 Y38.9342
G01 X51.5134 Y38.9448
G01 X51.5189 Y38.9557
G01 X51.6029 Y39.1332
G01 X51.6078 Y39.1443
G01 X51.6122 Y39.1557
G01 X51.6783 Y39.3405
G01 X51.6822 Y39.3521
G01 X51.6854 Y39.3639
G01 X51.7331 Y39.5543
G01 X51.7358 Y39.5662
G01 X51.7379 Y39.5783
G01 X51.7667 Y39.7724
G01 X51.7682 Y39.7846
G01 X51.7691 Y39.7967
G01 X51.7789 Y39.9989
G00 Z2.0000
G00 X67.6290 Y39.1257
G01 F60.00
G01 Z-0.0355
G01 F120.00
G01 X67.7568 Y38.8542
G01 X67.9175 Y38.6009
G01 X68.1087 Y38.3698
G01 X68.3274 Y38.1645
G01 X68.5701 Y37.9881
G01 X68.8329 Y37.8436
G01 X69.1118 Y37.7332
G01 X69.4024 Y37.6586
G01 X69.7000 Y37.6210
G01 X70.0000 Y37.6210
G01 X70.2976 Y37.6586
G01 X70.5882 Y37.7332
G01 X70.8671 Y37.8436
G01 X71.1299 Y37.9881
G01 X71.3726 Y38.1645
G01 X71.5913 Y38.3698
G01 X71.7825 Y38.6009
G01 X71.9432 Y38.8542
G01 X72.0710 Y39.1257
G01 X72.1637 Y39.4110
G01 X72.2199 Y39.7056
G01 X72.2387 Y40.0050
G01 X72.2199 Y40.3044
G01 X72.1637 Y40.5990
G01 X72.0710 Y40.8843
G01 X71.9432 Y41.1558
G01 X71.7825 Y41.4091
G01 X71.5913 Y41.6402
G01 X71.3726 Y41.8455
G01 X71.1299 Y42.0219
G01 X70.8671 Y42.1664
G01 X70.5882 Y42.2768
G01 X70.2976 Y42.3514
G01 X70.0000 Y42.3890
G01 X69.7000 Y42.3890
G01 X69.4024 Y42.3514
G01 X69.1118 Y42.2768
G01 X68.8329 Y42.1664
G01 X68.5701 Y42.0219
G01 X68.3274 Y41.8455
G01 X68.1087 Y41.6402
G01 X67.9175 Y41.4091
G01 X67.7568 Y41.1558
G01 X67.6290 Y40.8843
G01 X67.5363 Y40.5990
G01 X67.4801 Y40.3044
G01 X67.4613 Y40.0050
G01 X67.4801 Y39.7056
G01 X67.5363 Y39.4110
G01 X67.6290 Y39.1257
G00 Z2.0000
G00 X67.7450 Y39.1716
G01 F60.00
G01 Z-0.0355
G01 F120.00
G01 X67.8661 Y38.9143
G01 X68.0184 Y38.6743
G01 X68.1996 Y38.4552
G01 X68.4069 Y38.2606
G01 X68.6369 Y38.0935
G01 X68.8861 Y37.9565
G01 X69.1504 Y37.8518
G01 X69.4258 Y37.7811
G01 X69.7078 Y37.7455
G01 X69.9922 Y37.7455
G01 X70.2742 Y37.7811
G01 X70.5496 Y37.8518
G01 X70.8139 Y37.9565
G01 X71.0631 Y38.0935
G01 X71.2931 Y38.2606
G01 X71.5004 Y38.4552
G01 X71.6816 Y38.6743
G01 X71.8339 Y38.9143
G01 X71.9550 Y39.1716
G01 X72.0428 Y39.4420
G01 X72.0961 Y39.7212
G01 X72.1140 Y40.0050
G01 X72.0961 Y40.2888
G01 X72.0428 Y40.5680
G01 X71.9550 Y40.8384
G01 X71.8339 Y41.0957
G01 X71.6816 Y41.3357
G01 X71.5004 Y41.5548
G01 X71.2931 Y41.7494
G01 X71.0631 Y41.9165
G01 X70.8139 Y42.0535
G01 X70.5496 Y42.1582
G01 X70.2742 Y42.2289
G01 X69.9922 Y42.2645
G01 X69.7078 Y42.2645
G01 X69.4258 Y42.2289
G01 X69.1504 Y42.1582
G01 X68.8861 Y42.0535
G01 X68.6369 Y41.9165
G01 X68.4069 Y41.7494
G01 X68.1996 Y41.5548
G01 X68.0184 Y41.3357
G01 X67.8661 Y41.0957
G01 X67.7450 Y40.8384
G01 X67.6572 Y40.5680
G01 X67.6039 Y40.2888
G01 X67.5860 Y40.0050
G01 X67.6039 Y39.7212
G01 X67.6572 Y39.4420
G01 X67.7450 Y39.1716
G00 Z2.0000
G00 X71.9745 Y40.0019
G01 F60.00
G01 Z-0.0355
G01 F120.00
G01 X71.9743 Y40.0111
G01 X71.9643 Y40.2132
G01 X71.9337 Y40.4195
G01 X71.8830 Y40.6217
G01 X71.8128 Y40.8180
G01 X71.7236 Y41.0065
G01 X71.6165 Y41.1853
G01 X71.4923 Y41.3528
G01 X71.3522 Y41.5072
G01 X71.1978 Y41.6473
G01 X71.0303 Y41.7715
G01 X70.8515 Y41.8786
G01 X70.6630 Y41.9678
G01 X70.4667 Y42.0380
G01 X70.2645 Y42.0887
G01 X70.0582 Y42.1193
G01 X69.8500 Y42.1295
G01 X69.6418 Y42.1193
G01 X69.4355 Y42.0887
G01 X69.2333 Y42.0380
G01 X69.0370 Y41.9678
G01 X68.8485 Y41.8786
G01 X68.6697 Y41.7715
G01 X68.5022 Y41.6473
G01 X68.3478 Y41.5072
G01 X68.2077 Y41.3528
G01 X68.0835 Y41.1853
G01 X67.9764 Y41.0065
G01 X67.8872 Y40.8180
G01 X67.8170 Y40.6217
G01 X67.7663 Y40.4195
G01 X67.7357 Y40.2132
G01 X67.7255 Y40.0050
G01 X67.7357 Y39.7968
G01 X67.7663 Y39.5905
G01 X67.8170 Y39.3883
G01 X67.8872 Y39.1920
G01 X67.9764 Y39.0035
G01 X68.0835 Y38.8247
G01 X68.2077 Y38.6572
G01 X68.3478 Y38.5028
G01 X68.5022 Y38.3627
G01 X68.6697 Y38.2385
G01 X68.8485 Y38.1314
G01 X69.0370 Y38.0422
G01 X69.2333 Y37.9720
G01 X69.4355 Y37.9213
G01 X69.6418 Y37.8907
G01 X69.8500 Y37.8805
G01 X70.0582 Y37.8907
G01 X70.2645 Y37.9213
G01 X70.4667 Y37.9720
G01 X70.6630 Y38.0422
G01 X70.8515 Y38.1314
G01 X71.0303 Y38.2385
G01 X71.1978 Y38.3627
G01 X71.3522 Y38.5028
G01 X71.4923 Y38.6572
G01 X71.6165 Y38.8247
G01 X71.7236 Y39.0035
G01 X71.8128 Y39.1920
G01 X71.8830 Y39.3883
G01 X71.9337 Y39.5905
G01 X71.9643 Y39.7968
G01 X71.9745 Y40.0019
G00 Z2.0000
G00 X72.0989 Y39.9989
G01 F60.00
G01 Z-0.0355
G01 F120.00
G01 X72.0987 Y40.0172
G01 X72.0891 Y40.2133
G01 X72.0882 Y40.2254
G01 X72.0867 Y40.2376
G01 X72.0579 Y40.4317
G01 X72.0558 Y40.4438
G01 X72.0531 Y40.4557
G01 X72.0054 Y40.6461
G01 X72.0022 Y40.6579
G01 X71.9983 Y40.6695
G01 X71.9322 Y40.8543
G01 X71.9278 Y40.8657
G01 X71.9229 Y40.8768
G01 X71.8389 Y41.0543
G01 X71.8334 Y41.0652
G01 X71.8274 Y41.0758
G01 X71.7265 Y41.2442
G01 X71.7200 Y41.2545
G01 X71.7129 Y41.2645
G01 X71.5960 Y41.4221
G01 X71.5885 Y41.4318
G01 X71.5805 Y41.4410
G01 X71.4487 Y41.5864
G01 X71.4403 Y41.5953
G01 X71.4314 Y41.6037
G01 X71.2860 Y41.7355
G01 X71.2768 Y41.7435
G01 X71.2671 Y41.7510
G01 X71.1095 Y41.8679
G01 X71.0995 Y41.8750
G01 X71.0892 Y41.8815
G01 X70.9208 Y41.9824
G01 X70.9102 Y41.9884
G01 X70.8993 Y41.9939
G01 X70.7218 Y42.0779
G01 X70.7107 Y42.0828
G01 X70.6993 Y42.0872
G01 X70.5145 Y42.1533
G01 X70.5029 Y42.1572
G01 X70.4911 Y42.1604
G01 X70.3007 Y42.2081
G01 X70.2888 Y42.2108
G01 X70.2767 Y42.2129
G01 X70.0826 Y42.2417
G01 X70.0704 Y42.2432
G01 X70.0583 Y42.2441
G01 X69.8622 Y42.2537
G01 X69.8500 Y42.2540
G01 X69.8378 Y42.2537
G01 X69.6417 Y42.2441
G01 X69.6296 Y42.2432
G01 X69.6174 Y42.2417
G01 X69.4233 Y42.2129
G01 X69.4112 Y42.2108
G01 X69.3993 Y42.2081
G01 X69.2089 Y42.1604
G01 X69.1971 Y42.1572
G01 X69.1855 Y42.1533
G01 X69.0007 Y42.0872
G01 X68.9893 Y42.0828
G01 X68.9782 Y42.0779
G01 X68.8007 Y41.9939
G01 X68.7898 Y41.9884
G01 X68.7792 Y41.9824
G01 X68.6108 Y41.8815
G01 X68.6005 Y41.8750
G01 X68.5905 Y41.8679
G01 X68.4329 Y41.7510
G01 X68.4232 Y41.7435
G01 X68.4140 Y41.7355
G01 X68.2686 Y41.6037
G01 X68.2597 Y41.5953
G01 X68.2513 Y41.5864
G01 X68.1195 Y41.4410
G01 X68.1115 Y41.4318
G01 X68.1040 Y41.4221
G01 X67.9871 Y41.2645
G01 X67.9800 Y41.2545
G01 X67.9735 Y41.2442
G01 X67.8726 Y41.0758
G01 X67.8666 Y41.0652
G01 X67.8611 Y41.0543
G01 X67.7771 Y40.8768
G01 X67.7722 Y40.8657
G01 X67.7678 Y40.8543
G01 X67.7017 Y40.6695
G01 X67.6978 Y40.6579
G01 X67.6946 Y40.6461
G01 X67.6469 Y40.4557
G01 X67.6442 Y40.4438
G01 X67.6421 Y40.4317
G01 X67.6133 Y40.2376
G01 X67.6118 Y40.2254
G01 X67.6109 Y40.2133
G01 X67.6013 Y40.0172
G01 X67.6010 Y40.0050
G01 X67.6013 Y39.9928
G01 X67.6109 Y39.7967
G01 X67.6118 Y39.7846
G01 X67.6133 Y39.7724
G01 X67.6421 Y39.5783
G01 X67.6442 Y39.5662
G01 X67.6469 Y39.5543
G01 X67.6946 Y39.3639
G01 X67.6978 Y39.3521
G01 X67.7017 Y39.3405
G01 X67.7678 Y39.1557
G01 X67.7722 Y39.1443
G01 X67.7771 Y39.1332
G01 X67.8611 Y38.9557
G01 X67.8666 Y38.9448
G01 X67.8726 Y38.9342
G01 X67.9735 Y38.7658
G01 X67.9800 Y38.7555
G01 X67.9871 Y38.7455
G01 X68.1040 Y38.5879
G01 X68.1115 Y38.5782
G01 X68.1195 Y38.5690
G01 X68.2513 Y38.4236
G01 X68.2597 Y38.4147
G01 X68.2686 Y38.4063
G01 X68.4140 Y38.2745
G01 X68.4232 Y38.2665
G01 X68.4329 Y38.2590
G01 X68.5905 Y38.1421
G01 X68.6005 Y38.1350
G01 X68.6108 Y38.1285
G01 X68.7792 Y38.0276
G01 X68.7898 Y38.0216
G01 X68.8007 Y38.0161
G01 X68.9782 Y37.9321
G01 X68.9893 Y37.9272
G01 X69.0007 Y37.9228
G01 X69.1855 Y37.8567
G01 X69.1971 Y37.8528
G01 X69.2089 Y37.8496
G01 X69.3993 Y37.8019
G01 X69.4112 Y37.7992
G01 X69.4233 Y37.7971
G01 X69.6174 Y37.7683
G01 X69.6296 Y37.7668
G01 X69.6417 Y37.7659
G01 X69.8378 Y37.7563
G01 X69.8500 Y37.7560
G01 X69.8622 Y37.7563
G01 X70.0583 Y37.7659
G01 X70.0704 Y37.7668
G01 X70.0826 Y37.7683
G01 X70.2767 Y37.7971
G01 X70.2888 Y37.7992
G01 X70.3007 Y37.8019
G01 X70.4911 Y37.8496
G01 X70.5029 Y37.8528
G01 X70.5145 Y37.8567
G01 X70.6993 Y37.9228
G01 X70.7107 Y37.9272
G01 X70.7218 Y37.9321
G01 X70.8993 Y38.0161
G01 X70.9102 Y38.0216
G01 X70.9208 Y38.0276
G01 X71.0892 Y38.1285
G01 X71.0995 Y38.1350
G01 X71.1095 Y38.1421
G01 X71.2671 Y38.2590
G01 X71.2768 Y38.2665
G01 X71.2860 Y38.2745
G01 X71.4314 Y38.4063
G01 X71.4403 Y38.4147
G01 X71.4487 Y38.4236
G01 X71.5805 Y38.5690
G01 X71.5885 Y38.5782
G01 X71.5960 Y38.5879
G01 X71.7129 Y38.7455
G01 X71.7200 Y38.7555
G01 X71.7265 Y38.7658
G01 X71.8274 Y38.9342
G01 X71.8334 Y38.9448
G01 X71.8389 Y38.9557
G01 X71.9229 Y39.1332
G01 X71.9278 Y39.1443
G01 X71.9322 Y39.1557
G01 X71.9983 Y39.3405
G01 X72.0022 Y39.3521
G01 X72.0054 Y39.3639
G01 X72.0531 Y39.5543
G01 X72.0558 Y39.5662
G01 X72.0579 Y39.5783
G01 X72.0867 Y39.7724
G01 X72.0882 Y39.7846
G01 X72.0891 Y39.7967
G01 X72.0989 Y39.9989
G00 Z2.0000
G00 X78.4921 Y69.2392
G01 F60.00
G01 Z-0.0355
G01 F120.00
G01 X78.4913 Y69.2273
G01 X78.4910 Y69.2155
G01 X78.4911 Y61.0801
G01 X78.4921 Y61.0623
G01 X78.4944 Y61.0447
G01 X78.5081 Y60.9807
G01 X78.5110 Y60.9686
G01 X78.5166 Y60.9508
G01 X78.5234 Y60.9335
G01 X78.5316 Y60.9167
G01 X78.5410 Y60.9005
G01 X78.5515 Y60.8852
G01 X78.5632 Y60.8706
G01 X78.6138 Y60.8123
G01 X78.6268 Y60.7991
G01 X78.6360 Y60.7908
G01 X78.6456 Y60.7830
G01 X78.6607 Y60.7722
G01 X78.6712 Y60.7657
G01 X78.6820 Y60.7596
G01 X78.6930 Y60.7542
G01 X78.7044 Y60.7492
G01 X78.7160 Y60.7449
G01 X78.7277 Y60.7411
G01 X78.8073 Y60.7180
G01 X78.8189 Y60.7155
G01 X78.8364 Y60.7128
G01 X78.8542 Y60.7113
G01 X78.8660 Y60.7110
G01 X98.4255 Y60.7110
G01 X98.4433 Y60.7116
G01 X98.4551 Y60.7128
G01 X98.4668 Y60.7144
G01 X98.5308 Y60.7281
G01 X98.5429 Y60.7310
G01 X98.5607 Y60.7366
G01 X98.5780 Y60.7434
G01 X98.5948 Y60.7516
G01 X98.6110 Y60.7610
G01 X98.6263 Y60.7715
G01 X98.6409 Y60.7832
G01 X98.6992 Y60.8338
G01 X98.7124 Y60.8468
G01 X98.7207 Y60.8560
G01 X98.7285 Y60.8656
G01 X98.7393 Y60.8807
G01 X98.7458 Y60.8912
G01 X98.7519 Y60.9020
G01 X98.7573 Y60.9130
G01 X98.7623 Y60.9244
G01 X98.7666 Y60.9360
G01 X98.7704 Y60.9477
G01 X98.7935 Y61.0273
G01 X98.7971 Y61.0447
G01 X98.7987 Y61.0564
G01 X98.7999 Y61.0682
G01 X98.8005 Y61.0860
G01 X98.8004 Y69.2214
G01 X98.7994 Y69.2392
G01 X98.7971 Y69.2568
G01 X98.7834 Y69.3208
G01 X98.7805 Y69.3329
G01 X98.7749 Y69.3507
G01 X98.7681 Y69.3680
G01 X98.7599 Y69.3848
G01 X98.7505 Y69.4010
G01 X98.7400 Y69.4163
G01 X98.7283 Y69.4309
G01 X98.6777 Y69.4892
G01 X98.6647 Y69.5024
G01 X98.6555 Y69.5107
G01 X98.6459 Y69.5185
G01 X98.6359 Y69.5258
G01 X98.6256 Y69.5326
G01 X98.6150 Y69.5389
G01 X98.6040 Y69.5447
G01 X98.5871 Y69.5523
G01 X98.5755 Y69.5566
G01 X98.5638 Y69.5604
G01 X98.4842 Y69.5835
G01 X98.4668 Y69.5871
G01 X98.4551 Y69.5887
G01 X98.4433 Y69.5899
G01 X98.4255 Y69.5905
G01 X78.8601 Y69.5904
G01 X78.8423 Y69.5894
G01 X78.8247 Y69.5871
G01 X78.7607 Y69.5734
G01 X78.7427 Y69.5688
G01 X78.7308 Y69.5649
G01 X78.7192 Y69.5605
G01 X78.7078 Y69.5555
G01 X78.6967 Y69.5499
G01 X78.6858 Y69.5438
G01 X78.6702 Y69.5336
G01 X78.6602 Y69.5262
G01 X78.6506 Y69.5183
G01 X78.5969 Y69.4718
G01 X78.5878 Y69.4635
G01 X78.5791 Y69.4547
G01 X78.5708 Y69.4455
G01 X78.5630 Y69.4359
G01 X78.5557 Y69.4259
G01 X78.5489 Y69.4156
G01 X78.5426 Y69.4050
G01 X78.5368 Y69.3940
G01 X78.5316 Y69.3828
G01 X78.5270 Y69.3714
G01 X78.5229 Y69.3597
G01 X78.4995 Y69.2799
G01 X78.4967 Y69.2684
G01 X78.4944 Y69.2568
G01 X78.4921 Y69.2392
G00 Z2.0000
G00 X78.6161 Y69.2273
G01 F60.00
G01 Z-0.0355
G01 F120.00
G01 X78.6155 Y69.2155
G01 X78.6155 Y61.0830
G01 X78.6164 Y61.0712
G01 X78.6177 Y61.0624
G01 X78.6312 Y61.0011
G01 X78.6340 Y60.9922
G01 X78.6374 Y60.9836
G01 X78.6415 Y60.9752
G01 X78.6462 Y60.9671
G01 X78.6515 Y60.9594
G01 X78.6573 Y60.9521
G01 X78.7038 Y60.8985
G01 X78.7101 Y60.8917
G01 X78.7193 Y60.8834
G01 X78.7293 Y60.8761
G01 X78.7399 Y60.8698
G01 X78.7511 Y60.8646
G01 X78.7628 Y60.8605
G01 X78.8366 Y60.8390
G01 X78.8512 Y60.8364
G01 X78.8660 Y60.8355
G01 X98.4255 Y60.8355
G01 X98.4373 Y60.8361
G01 X98.4491 Y60.8377
G01 X98.5073 Y60.8504
G01 X98.5163 Y60.8530
G01 X98.5251 Y60.8562
G01 X98.5336 Y60.8601
G01 X98.5418 Y60.8645
G01 X98.5496 Y60.8696
G01 X98.5570 Y60.8753
G01 X98.6130 Y60.9238
G01 X98.6198 Y60.9301
G01 X98.6281 Y60.9393
G01 X98.6354 Y60.9493
G01 X98.6417 Y60.9599
G01 X98.6469 Y60.9711
G01 X98.6510 Y60.9828
G01 X98.6725 Y61.0566
G01 X98.6751 Y61.0712
G01 X98.6760 Y61.0860
G01 X98.6760 Y69.2185
G01 X98.6751 Y69.2303
G01 X98.6738 Y69.2391
G01 X98.6603 Y69.3004
G01 X98.6575 Y69.3093
G01 X98.6541 Y69.3179
G01 X98.6500 Y69.3263
G01 X98.6453 Y69.3344
G01 X98.6400 Y69.3421
G01 X98.6342 Y69.3494
G01 X98.5877 Y69.4030
G01 X98.5814 Y69.4098
G01 X98.5722 Y69.4181
G01 X98.5622 Y69.4254
G01 X98.5516 Y69.4317
G01 X98.5404 Y69.4369
G01 X98.5287 Y69.4410
G01 X98.4549 Y69.4625
G01 X98.4403 Y69.4651
G01 X98.4255 Y69.4660
G01 X78.8660 Y69.4660
G01 X78.8542 Y69.4654
G01 X78.8424 Y69.4638
G01 X78.7872 Y69.4518
G01 X78.7722 Y69.4475
G01 X78.7607 Y69.4428
G01 X78.7471 Y69.4353
G01 X78.7369 Y69.4282
G01 X78.6739 Y69.3735
G01 X78.6654 Y69.3646
G01 X78.6578 Y69.3548
G01 X78.6498 Y69.3416
G01 X78.6446 Y69.3304
G01 X78.6405 Y69.3187
G01 X78.6197 Y69.2477
G01 X78.6172 Y69.2361
G01 X78.6161 Y69.2273
G00 Z2.0000
G00 X58.8093 Y69.2244
G01 F60.00
G01 Z-0.0355
G01 F120.00
G01 X58.8090 Y69.2155
G01 X58.8090 Y61.0830
G01 X58.8099 Y61.0712
G01 X58.8112 Y61.0624
G01 X58.8239 Y61.0042
G01 X58.8265 Y60.9952
G01 X58.8297 Y60.9864
G01 X58.8336 Y60.9779
G01 X58.8380 Y60.9697
G01 X58.8431 Y60.9619
G01 X58.8488 Y60.9545
G01 X58.8973 Y60.8985
G01 X58.9036 Y60.8917
G01 X58.9128 Y60.8834
G01 X58.9202 Y60.8778
G01 X58.9307 Y60.8713
G01 X58.9418 Y60.8658
G01 X58.9563 Y60.8605
G01 X59.0273 Y60.8397
G01 X59.0418 Y60.8368
G01 X59.0506 Y60.8358
G01 X59.0595 Y60.8355
G01 X78.1005 Y60.8355
G01 X78.1123 Y60.8361
G01 X78.1241 Y60.8377
G01 X78.1823 Y60.8504
G01 X78.1913 Y60.8530
G01 X78.2001 Y60.8562
G01 X78.2086 Y60.8601
G01 X78.2168 Y60.8645
G01 X78.2246 Y60.8696
G01 X78.2320 Y60.8753
G01 X78.2880 Y60.9238
G01 X78.2948 Y60.9301
G01 X78.3031 Y60.9393
G01 X78.3104 Y60.9493
G01 X78.3152 Y60.9572
G01 X78.3207 Y60.9683
G01 X78.3260 Y60.9828
G01 X78.3468 Y61.0538
G01 X78.3488 Y61.0624
G01 X78.3501 Y61.0712
G01 X78.3510 Y61.0860
G01 X78.3510 Y69.2185
G01 X78.3501 Y69.2303
G01 X78.3488 Y69.2391
G01 X78.3361 Y69.2973
G01 X78.3335 Y69.3063
G01 X78.3303 Y69.3151
G01 X78.3264 Y69.3236
G01 X78.3220 Y69.3318
G01 X78.3169 Y69.3396
G01 X78.3112 Y69.3470
G01 X78.2627 Y69.4030
G01 X78.2564 Y69.4098
G01 X78.2472 Y69.4181
G01 X78.2372 Y69.4254
G01 X78.2266 Y69.4317
G01 X78.2182 Y69.4357
G01 X78.2037 Y69.4410
G01 X78.1327 Y69.4618
G01 X78.1182 Y69.4647
G01 X78.1094 Y69.4657
G01 X78.1005 Y69.4660
G01 X59.0595 Y69.4660
G01 X59.0477 Y69.4654
G01 X59.0359 Y69.4638
G01 X58.9807 Y69.4518
G01 X58.9657 Y69.4475
G01 X58.9542 Y69.4428
G01 X58.9406 Y69.4353
G01 X58.9304 Y69.4282
G01 X58.8674 Y69.3735
G01 X58.8569 Y69.3622
G01 X58.8496 Y69.3522
G01 X58.8419 Y69.3388
G01 X58.8370 Y69.3275
G01 X58.8340 Y69.3187
G01 X58.8132 Y69.2477
G01 X58.8107 Y69.2361
G01 X58.8093 Y69.2244
G00 Z2.0000
G00 X58.6856 Y69.2392
G01 F60.00
G01 Z-0.0355
G01 F120.00
G01 X58.6848 Y69.2273
G01 X58.6845 Y69.2155
G01 X58.6846 Y61.0801
G01 X58.6856 Y61.0623
G01 X58.6879 Y61.0447
G01 X58.7016 Y60.9807
G01 X58.7045 Y60.9686
G01 X58.7101 Y60.9508
G01 X58.7169 Y60.9335
G01 X58.7251 Y60.9167
G01 X58.7345 Y60.9005
G01 X58.7450 Y60.8852
G01 X58.7567 Y60.8706
G01 X58.8073 Y60.8123
G01 X58.8203 Y60.7991
G01 X58.8342 Y60.7869
G01 X58.8440 Y60.7793
G01 X58.8542 Y60.7722
G01 X58.8700 Y60.7626
G01 X58.8810 Y60.7568
G01 X58.8922 Y60.7516
G01 X58.9036 Y60.7470
G01 X58.9153 Y60.7429
G01 X58.9893 Y60.7211
G01 X59.0008 Y60.7180
G01 X59.0124 Y60.7155
G01 X59.0299 Y60.7128
G01 X59.0417 Y60.7116
G01 X59.0595 Y60.7110
G01 X78.1005 Y60.7110
G01 X78.1123 Y60.7113
G01 X78.1242 Y60.7121
G01 X78.1418 Y60.7144
G01 X78.2058 Y60.7281
G01 X78.2179 Y60.7310
G01 X78.2357 Y60.7366
G01 X78.2530 Y60.7434
G01 X78.2698 Y60.7516
G01 X78.2860 Y60.7610
G01 X78.3013 Y60.7715
G01 X78.3159 Y60.7832
G01 X78.3742 Y60.8338
G01 X78.3874 Y60.8468
G01 X78.3996 Y60.8607
G01 X78.4072 Y60.8705
G01 X78.4143 Y60.8807
G01 X78.4239 Y60.8965
G01 X78.4297 Y60.9075
G01 X78.4349 Y60.9187
G01 X78.4395 Y60.9301
G01 X78.4436 Y60.9418
G01 X78.4654 Y61.0158
G01 X78.4685 Y61.0273
G01 X78.4721 Y61.0447
G01 X78.4737 Y61.0564
G01 X78.4749 Y61.0682
G01 X78.4755 Y61.0860
G01 X78.4754 Y69.2214
G01 X78.4744 Y69.2392
G01 X78.4721 Y69.2568
G01 X78.4584 Y69.3208
G01 X78.4555 Y69.3329
G01 X78.4499 Y69.3507
G01 X78.4431 Y69.3680
G01 X78.4349 Y69.3848
G01 X78.4255 Y69.4010
G01 X78.4150 Y69.4163
G01 X78.4033 Y69.4309
G01 X78.3527 Y69.4892
G01 X78.3397 Y69.5024
G01 X78.3305 Y69.5107
G01 X78.3209 Y69.5185
G01 X78.3058 Y69.5293
G01 X78.2900 Y69.5389
G01 X78.2790 Y69.5447
G01 X78.2678 Y69.5499
G01 X78.2564 Y69.5545
G01 X78.2447 Y69.5586
G01 X78.1707 Y69.5804
G01 X78.1592 Y69.5835
G01 X78.1418 Y69.5871
G01 X78.1301 Y69.5887
G01 X78.1183 Y69.5899
G01 X78.1005 Y69.5905
G01 X59.0536 Y69.5904
G01 X59.0358 Y69.5894
G01 X59.0182 Y69.5871
G01 X58.9542 Y69.5734
G01 X58.9421 Y69.5705
G01 X58.9243 Y69.5649
G01 X58.9127 Y69.5605
G01 X58.9013 Y69.5555
G01 X58.8847 Y69.5469
G01 X58.8740 Y69.5405
G01 X58.8637 Y69.5336
G01 X58.8537 Y69.5262
G01 X58.8441 Y69.5183
G01 X58.7904 Y69.4718
G01 X58.7813 Y69.4635
G01 X58.7726 Y69.4547
G01 X58.7643 Y69.4455
G01 X58.7565 Y69.4359
G01 X58.7492 Y69.4259
G01 X58.7424 Y69.4156
G01 X58.7361 Y69.4050
G01 X58.7303 Y69.3940
G01 X58.7251 Y69.3828
G01 X58.7205 Y69.3714
G01 X58.7164 Y69.3597
G01 X58.6930 Y69.2799
G01 X58.6890 Y69.2626
G01 X58.6870 Y69.2509
G01 X58.6856 Y69.2392
G00 Z2.0000
G00 X37.9761 Y69.2273
G01 F60.00
G01 Z-0.0355
G01 F120.00
G01 X37.9755 Y69.2155
G01 X37.9755 Y61.0830
G01 X37.9761 Y61.0742
G01 X37.9777 Y61.0624
G01 X37.9912 Y61.0011
G01 X37.9940 Y60.9922
G01 X37.9974 Y60.9836
G01 X38.0015 Y60.9752
G01 X38.0062 Y60.9671
G01 X38.0115 Y60.9594
G01 X38.0173 Y60.9521
G01 X38.0638 Y60.8985
G01 X38.0701 Y60.8917
G01 X38.0793 Y60.8834
G01 X38.0893 Y60.8761
G01 X38.0999 Y60.8698
G01 X38.1111 Y60.8646
G01 X38.1228 Y60.8605
G01 X38.1966 Y60.8390
G01 X38.2112 Y60.8364
G01 X38.2260 Y60.8355
G01 X58.2940 Y60.8355
G01 X58.3058 Y60.8361
G01 X58.3176 Y60.8377
G01 X58.3758 Y60.8504
G01 X58.3848 Y60.8530
G01 X58.3936 Y60.8562
G01 X58.4021 Y60.8601
G01 X58.4103 Y60.8645
G01 X58.4181 Y60.8696
G01 X58.4255 Y60.8753
G01 X58.4815 Y60.9238
G01 X58.4883 Y60.9301
G01 X58.4966 Y60.9393
G01 X58.5039 Y60.9493
G01 X58.5102 Y60.9599
G01 X58.5154 Y60.9711
G01 X58.5195 Y60.9828
G01 X58.5410 Y61.0566
G01 X58.5436 Y61.0712
G01 X58.5445 Y61.0860
G01 X58.5445 Y69.2185
G01 X58.5439 Y69.2273
G01 X58.5423 Y69.2391
G01 X58.5288 Y69.3004
G01 X58.5260 Y69.3093
G01 X58.5226 Y69.3179
G01 X58.5185 Y69.3263
G01 X58.5138 Y69.3344
G01 X58.5085 Y69.3421
G01 X58.5027 Y69.3494
G01 X58.4562 Y69.4030
G01 X58.4499 Y69.4098
G01 X58.4407 Y69.4181
G01 X58.4307 Y69.4254
G01 X58.4201 Y69.4317
G01 X58.4089 Y69.4369
G01 X58.3972 Y69.4410
G01 X58.3234 Y69.4625
G01 X58.3088 Y69.4651
G01 X58.2940 Y69.4660
G01 X38.2260 Y69.4660
G01 X38.2142 Y69.4654
G01 X38.2024 Y69.4638
G01 X38.1472 Y69.4518
G01 X38.1322 Y69.4475
G01 X38.1207 Y69.4428
G01 X38.1071 Y69.4353
G01 X38.0969 Y69.4282
G01 X38.0339 Y69.3735
G01 X38.0254 Y69.3646
G01 X38.0161 Y69.3522
G01 X38.0098 Y69.3416
G01 X38.0046 Y69.3304
G01 X38.0005 Y69.3187
G01 X37.9797 Y69.2477
G01 X37.9772 Y69.2361
G01 X37.9761 Y69.2273
G00 Z2.0000
G00 X37.8516 Y69.2333
G01 F60.00
G01 Z-0.0355
G01 F120.00
G01 X37.8510 Y69.2155
G01 X37.8511 Y61.0801
G01 X37.8521 Y61.0623
G01 X37.8544 Y61.0447
G01 X37.8681 Y60.9807
G01 X37.8710 Y60.9686
G01 X37.8766 Y60.9508
G01 X37.8834 Y60.9335
G01 X37.8916 Y60.9167
G01 X37.9010 Y60.9005
G01 X37.9115 Y60.8852
G01 X37.9232 Y60.8706
G01 X37.9738 Y60.8123
G01 X37.9868 Y60.7991
G01 X37.9960 Y60.7908
G01 X38.0056 Y60.7830
G01 X38.0207 Y60.7722
G01 X38.0312 Y60.7657
G01 X38.0420 Y60.7596
G01 X38.0530 Y60.7542
G01 X38.0644 Y60.7492
G01 X38.0760 Y60.7449
G01 X38.0877 Y60.7411
G01 X38.1673 Y60.7180
G01 X38.1847 Y60.7144
G01 X38.1964 Y60.7128
G01 X38.2142 Y60.7113
G01 X38.2260 Y60.7110
G01 X58.2940 Y60.7110
G01 X58.3118 Y60.7116
G01 X58.3236 Y60.7128
G01 X58.3353 Y60.7144
G01 X58.3993 Y60.7281
G01 X58.4114 Y60.7310
G01 X58.4292 Y60.7366
G01 X58.4465 Y60.7434
G01 X58.4633 Y60.7516
G01 X58.4795 Y60.7610
G01 X58.4948 Y60.7715
G01 X58.5094 Y60.7832
G01 X58.5677 Y60.8338
G01 X58.5809 Y60.8468
G01 X58.5892 Y60.8560
G01 X58.5970 Y60.8656
G01 X58.6043 Y60.8756
G01 X58.6111 Y60.8859
G01 X58.6204 Y60.9020
G01 X58.6258 Y60.9130
G01 X58.6308 Y60.9244
G01 X58.6351 Y60.9360
G01 X58.6389 Y60.9477
G01 X58.6620 Y61.0273
G01 X58.6645 Y61.0389
G01 X58.6672 Y61.0564
G01 X58.6684 Y61.0682
G01 X58.6690 Y61.0860
G01 X58.6689 Y69.2214
G01 X58.6679 Y69.2392
G01 X58.6656 Y69.2568
G01 X58.6519 Y69.3208
G01 X58.6490 Y69.3329
G01 X58.6434 Y69.3507
G01 X58.6366 Y69.3680
G01 X58.6284 Y69.3848
G01 X58.6190 Y69.4010
G01 X58.6085 Y69.4163
G01 X58.5968 Y69.4309
G01 X58.5462 Y69.4892
G01 X58.5332 Y69.5024
G01 X58.5193 Y69.5146
G01 X58.5095 Y69.5222
G01 X58.4993 Y69.5293
G01 X58.4888 Y69.5358
G01 X58.4780 Y69.5419
G01 X58.4670 Y69.5473
G01 X58.4556 Y69.5523
G01 X58.4440 Y69.5566
G01 X58.4323 Y69.5604
G01 X58.3527 Y69.5835
G01 X58.3411 Y69.5860
G01 X58.3236 Y69.5887
G01 X58.3118 Y69.5899
G01 X58.2940 Y69.5905
G01 X38.2201 Y69.5904
G01 X38.2023 Y69.5894
G01 X38.1847 Y69.5871
G01 X38.1207 Y69.5734
G01 X38.1086 Y69.5705
G01 X38.0908 Y69.5649
G01 X38.0792 Y69.5605
G01 X38.0678 Y69.5555
G01 X38.0512 Y69.5469
G01 X38.0405 Y69.5405
G01 X38.0302 Y69.5336
G01 X38.0202 Y69.5262
G01 X38.0106 Y69.5183
G01 X37.9569 Y69.4718
G01 X37.9478 Y69.4635
G01 X37.9391 Y69.4547
G01 X37.9308 Y69.4455
G01 X37.9230 Y69.4359
G01 X37.9122 Y69.4208
G01 X37.9057 Y69.4103
G01 X37.8996 Y69.3995
G01 X37.8942 Y69.3885
G01 X37.8892 Y69.3771
G01 X37.8849 Y69.3655
G01 X37.8811 Y69.3538
G01 X37.8595 Y69.2799
G01 X37.8567 Y69.2684
G01 X37.8544 Y69.2568
G01 X37.8528 Y69.2451
G01 X37.8516 Y69.2333
G00 Z2.0000
G00 X16.4136 Y66.6618
G01 F60.00
G01 Z-0.0355
G01 F120.00
G01 X16.4284 Y66.6609
G01 X16.4579 Y66.6581
G01 X16.4872 Y66.6539
G01 X16.5163 Y66.6483
G01 X16.5451 Y66.6413
G01 X16.6275 Y66.6173
G01 X16.6423 Y66.6127
G01 X16.6715 Y66.6026
G01 X16.7001 Y66.5910
G01 X16.7142 Y66.5846
G01 X16.7419 Y66.5709
G01 X16.7689 Y66.5558
G01 X16.7951 Y66.5395
G01 X16.8079 Y66.5308
G01 X16.8329 Y66.5125
G01 X16.8450 Y66.5029
G01 X16.8568 Y66.4930
G01 X16.8798 Y66.4723
G01 X16.9018 Y66.4505
G01 X16.9226 Y66.4276
G01 X16.9691 Y66.3740
G01 X16.9888 Y66.3500
G01 X17.0074 Y66.3250
G01 X17.0247 Y66.2991
G01 X17.0328 Y66.2859
G01 X17.0481 Y66.2588
G01 X17.0621 Y66.2310
G01 X17.0746 Y66.2025
G01 X17.0857 Y66.1734
G01 X17.0906 Y66.1587
G01 X17.0995 Y66.1289
G01 X17.1069 Y66.0987
G01 X17.1213 Y66.0318
G01 X17.1262 Y66.0026
G01 X17.1281 Y65.9879
G01 X17.1309 Y65.9584
G01 X17.1323 Y65.9288
G01 X17.1325 Y65.9140
G01 X17.1325 Y65.3925
G01 X17.1575 Y65.3925
G01 X17.1577 Y65.9288
G01 X17.1591 Y65.9584
G01 X17.1619 Y65.9879
G01 X17.1661 Y66.0172
G01 X17.1687 Y66.0318
G01 X17.1750 Y66.0608
G01 X17.1787 Y66.0751
G01 X17.2073 Y66.1723
G01 X17.2122 Y66.1869
G01 X17.2231 Y66.2159
G01 X17.2290 Y66.2301
G01 X17.2421 Y66.2582
G01 X17.2564 Y66.2855
G01 X17.2722 Y66.3121
G01 X17.2805 Y66.3251
G01 X17.2982 Y66.3505
G01 X17.3075 Y66.3629
G01 X17.3270 Y66.3868
G01 X17.3372 Y66.3985
G01 X17.3585 Y66.4209
G01 X17.3808 Y66.4423
G01 X17.3924 Y66.4526
G01 X17.4579 Y66.5091
G01 X17.4700 Y66.5188
G01 X17.4950 Y66.5374
G01 X17.5209 Y66.5547
G01 X17.5341 Y66.5628
G01 X17.5612 Y66.5781
G01 X17.5750 Y66.5853
G01 X17.5890 Y66.5921
G01 X17.6175 Y66.6046
G01 X17.6320 Y66.6103
G01 X17.6613 Y66.6206
G01 X17.6762 Y66.6253
G01 X17.7062 Y66.6334
G01 X17.7737 Y66.6483
G01 X17.8028 Y66.6539
G01 X17.8321 Y66.6581
G01 X17.8468 Y66.6597
G01 X17.8764 Y66.6618
G01 X17.9060 Y66.6625
G01 X18.4275 Y66.6625
G01 X18.4275 Y66.6875
G01 X17.8912 Y66.6877
G01 X17.8616 Y66.6891
G01 X17.8321 Y66.6919
G01 X17.8028 Y66.6961
G01 X17.7882 Y66.6987
G01 X17.7592 Y66.7050
G01 X17.7449 Y66.7087
G01 X17.6477 Y66.7373
G01 X17.6185 Y66.7474
G01 X17.6041 Y66.7531
G01 X17.5758 Y66.7654
G01 X17.5618 Y66.7721
G01 X17.5481 Y66.7791
G01 X17.5211 Y66.7942
G01 X17.4949 Y66.8105
G01 X17.4821 Y66.8192
G01 X17.4571 Y66.8375
G01 X17.4450 Y66.8471
G01 X17.4215 Y66.8672
G01 X17.3991 Y66.8885
G01 X17.3882 Y66.8995
G01 X17.3674 Y66.9224
G01 X17.3109 Y66.9879
G01 X17.2917 Y67.0124
G01 X17.2826 Y67.0250
G01 X17.2653 Y67.0509
G01 X17.2572 Y67.0641
G01 X17.2419 Y67.0912
G01 X17.2347 Y67.1050
G01 X17.2279 Y67.1190
G01 X17.2154 Y67.1475
G01 X17.2043 Y67.1766
G01 X17.1994 Y67.1913
G01 X17.1905 Y67.2211
G01 X17.1866 Y67.2362
G01 X17.1717 Y67.3037
G01 X17.1661 Y67.3328
G01 X17.1638 Y67.3474
G01 X17.1603 Y67.3768
G01 X17.1582 Y67.4064
G01 X17.1575 Y67.4360
G01 X17.1575 Y67.9575
G01 X17.1325 Y67.9575
G01 X17.1323 Y67.4212
G01 X17.1318 Y67.4064
G01 X17.1297 Y67.3768
G01 X17.1262 Y67.3474
G01 X17.1213 Y67.3182
G01 X17.1183 Y67.3037
G01 X17.1113 Y67.2749
G01 X17.0827 Y67.1777
G01 X17.0778 Y67.1631
G01 X17.0669 Y67.1341
G01 X17.0610 Y67.1199
G01 X17.0479 Y67.0918
G01 X17.0336 Y67.0645
G01 X17.0178 Y67.0379
G01 X17.0095 Y67.0249
G01 X16.9918 Y66.9995
G01 X16.9825 Y66.9871
G01 X16.9630 Y66.9632
G01 X16.9423 Y66.9402
G01 X16.9315 Y66.9291
G01 X16.9092 Y66.9077
G01 X16.8976 Y66.8974
G01 X16.8321 Y66.8409
G01 X16.8200 Y66.8312
G01 X16.7950 Y66.8126
G01 X16.7691 Y66.7953
G01 X16.7559 Y66.7872
G01 X16.7288 Y66.7719
G01 X16.7150 Y66.7647
G01 X16.7010 Y66.7579
G01 X16.6725 Y66.7454
G01 X16.6580 Y66.7397
G01 X16.6287 Y66.7294
G01 X16.5989 Y66.7205
G01 X16.5687 Y66.7131
G01 X16.5163 Y66.7017
G01 X16.4872 Y66.6961
G01 X16.4579 Y66.6919
G01 X16.4432 Y66.6903
G01 X16.4136 Y66.6882
G01 X16.3840 Y66.6875
G01 X15.8625 Y66.6875
G01 X15.8625 Y66.6625
G01 X16.3840 Y66.6625
G01 X16.4136 Y66.6618
G00 Z2.0000
G00 X16.4077 Y66.5374
G01 F60.00
G01 Z-0.0355
G01 F120.00
G01 X16.4313 Y66.5357
G01 X16.4431 Y66.5345
G01 X16.4666 Y66.5311
G01 X16.4899 Y66.5266
G01 X16.5129 Y66.5210
G01 X16.5243 Y66.5178
G01 X16.6042 Y66.4942
G01 X16.6276 Y66.4861
G01 X16.6391 Y66.4816
G01 X16.6618 Y66.4717
G01 X16.6840 Y66.4607
G01 X16.6948 Y66.4548
G01 X16.7161 Y66.4423
G01 X16.7265 Y66.4356
G01 X16.7468 Y66.4214
G01 X16.7567 Y66.4140
G01 X16.7759 Y66.3984
G01 X16.7943 Y66.3818
G01 X16.8032 Y66.3732
G01 X16.8203 Y66.3554
G01 X16.8750 Y66.2925
G01 X16.8908 Y66.2733
G01 X16.9056 Y66.2533
G01 X16.9195 Y66.2326
G01 X16.9260 Y66.2220
G01 X16.9382 Y66.2003
G01 X16.9439 Y66.1893
G01 X16.9494 Y66.1781
G01 X16.9594 Y66.1553
G01 X16.9682 Y66.1320
G01 X16.9759 Y66.1083
G01 X16.9793 Y66.0964
G01 X16.9852 Y66.0722
G01 X16.9990 Y66.0082
G01 X17.0029 Y65.9849
G01 X17.0057 Y65.9613
G01 X17.0074 Y65.9377
G01 X17.0080 Y65.9140
G01 X17.0080 Y65.2680
G01 X17.2820 Y65.2680
G01 X17.2820 Y65.9140
G01 X17.2826 Y65.9377
G01 X17.2843 Y65.9613
G01 X17.2855 Y65.9731
G01 X17.2871 Y65.9849
G01 X17.2910 Y66.0082
G01 X17.2960 Y66.0314
G01 X17.2990 Y66.0429
G01 X17.3258 Y66.1342
G01 X17.3339 Y66.1576
G01 X17.3384 Y66.1691
G01 X17.3432 Y66.1805
G01 X17.3536 Y66.2030
G01 X17.3593 Y66.2140
G01 X17.3713 Y66.2356
G01 X17.3777 Y66.2461
G01 X17.3914 Y66.2668
G01 X17.3986 Y66.2768
G01 X17.4137 Y66.2964
G01 X17.4216 Y66.3059
G01 X17.4382 Y66.3243
G01 X17.4556 Y66.3418
G01 X17.4739 Y66.3585
G01 X17.5275 Y66.4050
G01 X17.5467 Y66.4208
G01 X17.5667 Y66.4356
G01 X17.5874 Y66.4495
G01 X17.5980 Y66.4560
G01 X17.6197 Y66.4682
G01 X17.6419 Y66.4794
G01 X17.6647 Y66.4894
G01 X17.6880 Y66.4982
G01 X17.7117 Y66.5059
G01 X17.7357 Y66.5124
G01 X17.8001 Y66.5266
G01 X17.8234 Y66.5311
G01 X17.8469 Y66.5345
G01 X17.8705 Y66.5367
G01 X17.8941 Y66.5379
G01 X18.5520 Y66.5380
G01 X18.5520 Y66.8120
G01 X17.9060 Y66.8120
G01 X17.8941 Y66.8121
G01 X17.8705 Y66.8133
G01 X17.8469 Y66.8155
G01 X17.8351 Y66.8171
G01 X17.8118 Y66.8210
G01 X17.8001 Y66.8234
G01 X17.7771 Y66.8290
G01 X17.6858 Y66.8558
G01 X17.6740 Y66.8597
G01 X17.6509 Y66.8684
G01 X17.6282 Y66.8783
G01 X17.6170 Y66.8836
G01 X17.5952 Y66.8952
G01 X17.5844 Y66.9013
G01 X17.5739 Y66.9077
G01 X17.5532 Y66.9214
G01 X17.5333 Y66.9360
G01 X17.5236 Y66.9437
G01 X17.5048 Y66.9598
G01 X17.4957 Y66.9682
G01 X17.4782 Y66.9856
G01 X17.4615 Y67.0039
G01 X17.4150 Y67.0575
G01 X17.3992 Y67.0767
G01 X17.3844 Y67.0967
G01 X17.3705 Y67.1174
G01 X17.3640 Y67.1280
G01 X17.3518 Y67.1497
G01 X17.3406 Y67.1719
G01 X17.3306 Y67.1947
G01 X17.3218 Y67.2180
G01 X17.3141 Y67.2417
G01 X17.3076 Y67.2657
G01 X17.2934 Y67.3301
G01 X17.2889 Y67.3534
G01 X17.2855 Y67.3769
G01 X17.2833 Y67.4005
G01 X17.2821 Y67.4241
G01 X17.2820 Y68.0820
G01 X17.0080 Y68.0820
G01 X17.0080 Y67.4360
G01 X17.0074 Y67.4123
G01 X17.0067 Y67.4005
G01 X17.0045 Y67.3769
G01 X17.0029 Y67.3651
G01 X16.9990 Y67.3418
G01 X16.9940 Y67.3186
G01 X16.9878 Y67.2957
G01 X16.9678 Y67.2276
G01 X16.9642 Y67.2158
G01 X16.9561 Y67.1924
G01 X16.9516 Y67.1809
G01 X16.9417 Y67.1582
G01 X16.9307 Y67.1360
G01 X16.9187 Y67.1144
G01 X16.9123 Y67.1039
G01 X16.8986 Y67.0832
G01 X16.8914 Y67.0732
G01 X16.8763 Y67.0536
G01 X16.8602 Y67.0348
G01 X16.8432 Y67.0168
G01 X16.8344 Y67.0082
G01 X16.8161 Y66.9915
G01 X16.7625 Y66.9450
G01 X16.7433 Y66.9292
G01 X16.7334 Y66.9217
G01 X16.7130 Y66.9073
G01 X16.6920 Y66.8940
G01 X16.6703 Y66.8818
G01 X16.6481 Y66.8706
G01 X16.6253 Y66.8606
G01 X16.6137 Y66.8560
G01 X16.5902 Y66.8478
G01 X16.5664 Y66.8407
G01 X16.5543 Y66.8376
G01 X16.4782 Y66.8210
G01 X16.4549 Y66.8171
G01 X16.4431 Y66.8155
G01 X16.4195 Y66.8133
G01 X16.3959 Y66.8121
G01 X15.7380 Y66.8120
G01 X15.7380 Y66.5380
G01 X16.3840 Y66.5380
G01 X16.4077 Y66.5374
G00 Z2.0000
G00 X16.4018 Y66.4131
G01 F60.00
G01 Z-0.0355
G01 F120.00
G01 X16.4195 Y66.4118
G01 X16.4372 Y66.4097
G01 X16.4634 Y66.4050
G01 X16.4892 Y66.3984
G01 X16.5662 Y66.3756
G01 X16.5924 Y66.3662
G01 X16.6177 Y66.3548
G01 X16.6422 Y66.3415
G01 X16.6656 Y66.3265
G01 X16.6806 Y66.3155
G01 X16.6950 Y66.3038
G01 X16.7087 Y66.2914
G01 X16.7219 Y66.2783
G01 X16.7344 Y66.2646
G01 X16.7809 Y66.2109
G01 X16.7928 Y66.1965
G01 X16.8092 Y66.1738
G01 X16.8238 Y66.1500
G01 X16.8367 Y66.1251
G01 X16.8476 Y66.0994
G01 X16.8538 Y66.0818
G01 X16.8592 Y66.0639
G01 X16.8636 Y66.0457
G01 X16.8750 Y65.9934
G01 X16.8797 Y65.9672
G01 X16.8818 Y65.9495
G01 X16.8831 Y65.9318
G01 X16.8835 Y65.9140
G01 X16.8835 Y65.1435
G01 X17.4065 Y65.1435
G01 X17.4065 Y65.9140
G01 X17.4075 Y65.9406
G01 X17.4091 Y65.9583
G01 X17.4117 Y65.9759
G01 X17.4170 Y66.0021
G01 X17.4216 Y66.0192
G01 X17.4416 Y66.0873
G01 X17.4473 Y66.1050
G01 X17.4574 Y66.1309
G01 X17.4695 Y66.1560
G01 X17.4785 Y66.1722
G01 X17.4935 Y66.1956
G01 X17.5045 Y66.2106
G01 X17.5162 Y66.2250
G01 X17.5351 Y66.2454
G01 X17.5485 Y66.2582
G01 X17.6162 Y66.3169
G01 X17.6309 Y66.3284
G01 X17.6540 Y66.3443
G01 X17.6700 Y66.3538
G01 X17.6865 Y66.3626
G01 X17.7120 Y66.3742
G01 X17.7294 Y66.3808
G01 X17.7472 Y66.3866
G01 X17.7652 Y66.3915
G01 X17.8353 Y66.4068
G01 X17.8528 Y66.4097
G01 X17.8705 Y66.4118
G01 X17.8882 Y66.4131
G01 X17.9060 Y66.4135
G01 X18.6765 Y66.4135
G01 X18.6765 Y66.9365
G01 X17.9060 Y66.9365
G01 X17.8794 Y66.9375
G01 X17.8617 Y66.9391
G01 X17.8441 Y66.9417
G01 X17.8179 Y66.9470
G01 X17.8008 Y66.9516
G01 X17.7327 Y66.9716
G01 X17.7150 Y66.9773
G01 X17.6891 Y66.9874
G01 X17.6723 Y66.9952
G01 X17.6478 Y67.0085
G01 X17.6244 Y67.0235
G01 X17.6094 Y67.0345
G01 X17.5950 Y67.0462
G01 X17.5746 Y67.0651
G01 X17.5618 Y67.0785
G01 X17.5031 Y67.1462
G01 X17.4861 Y67.1685
G01 X17.4757 Y67.1840
G01 X17.4617 Y67.2082
G01 X17.4533 Y67.2249
G01 X17.4458 Y67.2420
G01 X17.4392 Y67.2594
G01 X17.4334 Y67.2772
G01 X17.4285 Y67.2952
G01 X17.4132 Y67.3653
G01 X17.4103 Y67.3828
G01 X17.4082 Y67.4005
G01 X17.4069 Y67.4182
G01 X17.4065 Y67.4360
G01 X17.4065 Y68.2065
G01 X16.8835 Y68.2065
G01 X16.8835 Y67.4360
G01 X16.8825 Y67.4094
G01 X16.8809 Y67.3917
G01 X16.8768 Y67.3653
G01 X16.8708 Y67.3393
G01 X16.8456 Y67.2538
G01 X16.8395 Y67.2363
G01 X16.8326 Y67.2191
G01 X16.8205 Y67.1940
G01 X16.8115 Y67.1778
G01 X16.8017 Y67.1621
G01 X16.7911 Y67.1468
G01 X16.7797 Y67.1322
G01 X16.7677 Y67.1181
G01 X16.7549 Y67.1046
G01 X16.7346 Y67.0856
G01 X16.6809 Y67.0391
G01 X16.6665 Y67.0272
G01 X16.6438 Y67.0108
G01 X16.6281 Y67.0009
G01 X16.6118 Y66.9917
G01 X16.5951 Y66.9833
G01 X16.5780 Y66.9758
G01 X16.5606 Y66.9692
G01 X16.5428 Y66.9634
G01 X16.5157 Y66.9564
G01 X16.4634 Y66.9450
G01 X16.4372 Y66.9403
G01 X16.4106 Y66.9375
G01 X16.3840 Y66.9365
G01 X15.6135 Y66.9365
G01 X15.6135 Y66.4135
G01 X16.3840 Y66.4135
G01 X16.4018 Y66.4131
G00 Z2.0000
G00 X16.3958 Y66.2887
G01 F60.00
G01 Z-0.0355
G01 F120.00
G01 X16.4077 Y66.2879
G01 X16.4194 Y66.2865
G01 X16.4311 Y66.2845
G01 X16.4427 Y66.2820
G01 X16.4542 Y66.2789
G01 X16.5282 Y66.2571
G01 X16.5456 Y66.2508
G01 X16.5625 Y66.2432
G01 X16.5735 Y66.2374
G01 X16.5841 Y66.2311
G01 X16.5995 Y66.2207
G01 X16.6093 Y66.2131
G01 X16.6187 Y66.2051
G01 X16.6320 Y66.1922
G01 X16.6403 Y66.1831
G01 X16.6868 Y66.1294
G01 X16.6985 Y66.1148
G01 X16.7057 Y66.1047
G01 X16.7123 Y66.0942
G01 X16.7213 Y66.0778
G01 X16.7266 Y66.0665
G01 X16.7313 Y66.0550
G01 X16.7373 Y66.0373
G01 X16.7419 Y66.0193
G01 X16.7545 Y65.9611
G01 X16.7565 Y65.9494
G01 X16.7579 Y65.9377
G01 X16.7589 Y65.9199
G01 X16.7590 Y65.0190
G01 X17.5310 Y65.0190
G01 X17.5310 Y65.9140
G01 X17.5313 Y65.9258
G01 X17.5321 Y65.9377
G01 X17.5335 Y65.9494
G01 X17.5355 Y65.9611
G01 X17.5380 Y65.9727
G01 X17.5611 Y66.0523
G01 X17.5649 Y66.0640
G01 X17.5716 Y66.0813
G01 X17.5796 Y66.0980
G01 X17.5889 Y66.1141
G01 X17.5957 Y66.1244
G01 X17.6069 Y66.1393
G01 X17.6191 Y66.1532
G01 X17.6278 Y66.1620
G01 X17.6369 Y66.1703
G01 X17.6954 Y66.2208
G01 X17.7102 Y66.2321
G01 X17.7258 Y66.2423
G01 X17.7422 Y66.2513
G01 X17.7535 Y66.2566
G01 X17.7708 Y66.2634
G01 X17.7827 Y66.2673
G01 X17.8007 Y66.2719
G01 X17.8531 Y66.2833
G01 X17.8706 Y66.2865
G01 X17.8882 Y66.2884
G01 X17.9060 Y66.2890
G01 X18.8010 Y66.2890
G01 X18.8010 Y67.0610
G01 X17.9060 Y67.0610
G01 X17.8942 Y67.0613
G01 X17.8823 Y67.0621
G01 X17.8706 Y67.0635
G01 X17.8589 Y67.0655
G01 X17.8473 Y67.0680
G01 X17.7677 Y67.0911
G01 X17.7501 Y67.0970
G01 X17.7330 Y67.1042
G01 X17.7165 Y67.1126
G01 X17.7059 Y67.1189
G01 X17.6905 Y67.1293
G01 X17.6807 Y67.1369
G01 X17.6713 Y67.1449
G01 X17.6580 Y67.1578
G01 X17.6497 Y67.1669
G01 X17.5992 Y67.2254
G01 X17.5879 Y67.2402
G01 X17.5777 Y67.2558
G01 X17.5687 Y67.2722
G01 X17.5634 Y67.2835
G01 X17.5566 Y67.3008
G01 X17.5527 Y67.3127
G01 X17.5481 Y67.3307
G01 X17.5367 Y67.3831
G01 X17.5335 Y67.4006
G01 X17.5316 Y67.4182
G01 X17.5310 Y67.4360
G01 X17.5310 Y68.3310
G01 X16.7590 Y68.3310
G01 X16.7590 Y67.4360
G01 X16.7584 Y67.4182
G01 X16.7572 Y67.4064
G01 X16.7556 Y67.3947
G01 X16.7533 Y67.3831
G01 X16.7505 Y67.3716
G01 X16.7289 Y67.2977
G01 X16.7251 Y67.2860
G01 X16.7208 Y67.2744
G01 X16.7158 Y67.2630
G01 X16.7104 Y67.2520
G01 X16.7043 Y67.2412
G01 X16.6978 Y67.2307
G01 X16.6907 Y67.2205
G01 X16.6831 Y67.2107
G01 X16.6751 Y67.2013
G01 X16.6666 Y67.1924
G01 X16.6531 Y67.1797
G01 X16.5994 Y67.1332
G01 X16.5898 Y67.1253
G01 X16.5798 Y67.1179
G01 X16.5695 Y67.1110
G01 X16.5588 Y67.1046
G01 X16.5478 Y67.0987
G01 X16.5365 Y67.0934
G01 X16.5250 Y67.0887
G01 X16.5133 Y67.0846
G01 X16.5014 Y67.0810
G01 X16.4893 Y67.0781
G01 X16.4369 Y67.0667
G01 X16.4253 Y67.0644
G01 X16.4136 Y67.0628
G01 X16.3958 Y67.0613
G01 X16.3840 Y67.0610
G01 X15.4890 Y67.0610
G01 X15.4890 Y66.2890
G01 X16.3840 Y66.2890
G01 X16.3958 Y66.2887
G00 Z2.0000
G00 X16.3899 Y66.1644
G01 F60.00
G01 Z-0.0355
G01 F120.00
G01 X16.4017 Y66.1632
G01 X16.4162 Y66.1603
G01 X16.4872 Y66.1395
G01 X16.4960 Y66.1365
G01 X16.5073 Y66.1316
G01 X16.5181 Y66.1256
G01 X16.5283 Y66.1185
G01 X16.5377 Y66.1105
G01 X16.5462 Y66.1015
G01 X16.5947 Y66.0455
G01 X16.6021 Y66.0355
G01 X16.6085 Y66.0248
G01 X16.6138 Y66.0136
G01 X16.6188 Y65.9989
G01 X16.6323 Y65.9376
G01 X16.6339 Y65.9258
G01 X16.6345 Y65.9140
G01 X16.6345 Y64.8945
G01 X17.6555 Y64.8945
G01 X17.6555 Y65.9170
G01 X17.6568 Y65.9317
G01 X17.6583 Y65.9405
G01 X17.6605 Y65.9491
G01 X17.6815 Y66.0202
G01 X17.6858 Y66.0317
G01 X17.6913 Y66.0428
G01 X17.6961 Y66.0507
G01 X17.7015 Y66.0583
G01 X17.7074 Y66.0654
G01 X17.7139 Y66.0720
G01 X17.7745 Y66.1247
G01 X17.7819 Y66.1304
G01 X17.7897 Y66.1355
G01 X17.8036 Y66.1426
G01 X17.8122 Y66.1460
G01 X17.8211 Y66.1488
G01 X17.8795 Y66.1617
G01 X17.8942 Y66.1639
G01 X17.9060 Y66.1645
G01 X18.9255 Y66.1645
G01 X18.9255 Y67.1855
G01 X17.9030 Y67.1855
G01 X17.8883 Y67.1868
G01 X17.8795 Y67.1883
G01 X17.8709 Y67.1905
G01 X17.7998 Y67.2115
G01 X17.7883 Y67.2158
G01 X17.7772 Y67.2213
G01 X17.7693 Y67.2261
G01 X17.7617 Y67.2315
G01 X17.7546 Y67.2374
G01 X17.7480 Y67.2439
G01 X17.6953 Y67.3045
G01 X17.6896 Y67.3119
G01 X17.6845 Y67.3197
G01 X17.6774 Y67.3336
G01 X17.6740 Y67.3422
G01 X17.6712 Y67.3511
G01 X17.6583 Y67.4095
G01 X17.6561 Y67.4242
G01 X17.6555 Y67.4360
G01 X17.6555 Y68.4555
G01 X16.6345 Y68.4555
G01 X16.6344 Y67.4301
G01 X16.6328 Y67.4154
G01 X16.6303 Y67.4038
G01 X16.6095 Y67.3328
G01 X16.6065 Y67.3240
G01 X16.6002 Y67.3099
G01 X16.5939 Y67.2993
G01 X16.5866 Y67.2893
G01 X16.5783 Y67.2801
G01 X16.5715 Y67.2738
G01 X16.5155 Y67.2253
G01 X16.5055 Y67.2179
G01 X16.4921 Y67.2101
G01 X16.4778 Y67.2040
G01 X16.4658 Y67.2004
G01 X16.4076 Y67.1877
G01 X16.3929 Y67.1858
G01 X16.3840 Y67.1855
G01 X15.3645 Y67.1855
G01 X15.3645 Y66.1645
G01 X16.3899 Y66.1644
G00 Z2.0000
G00 X0.3843 Y69.2244
G01 F60.00
G01 Z-0.0355
G01 F120.00
G01 X0.3840 Y69.2155
G01 X0.3840 Y36.9560
G01 X0.3846 Y36.9442
G01 X0.3862 Y36.9324
G01 X0.3997 Y36.8711
G01 X0.4025 Y36.8622
G01 X0.4059 Y36.8536
G01 X0.4100 Y36.8452
G01 X0.4147 Y36.8371
G01 X0.4200 Y36.8294
G01 X0.4258 Y36.8221
G01 X0.4723 Y36.7685
G01 X0.4808 Y36.7595
G01 X0.4902 Y36.7515
G01 X0.5030 Y36.7428
G01 X0.5140 Y36.7371
G01 X0.5283 Y36.7315
G01 X0.6051 Y36.7090
G01 X0.6197 Y36.7064
G01 X0.6345 Y36.7055
G01 X8.8226 Y36.7055
G01 X8.8354 Y36.7062
G01 X8.8449 Y36.7075
G01 X8.8984 Y36.7187
G01 X8.9073 Y36.7209
G01 X8.9189 Y36.7248
G01 X8.9273 Y36.7285
G01 X8.9380 Y36.7344
G01 X8.9457 Y36.7394
G01 X8.9529 Y36.7451
G01 X9.0118 Y36.7946
G01 X9.0221 Y36.8052
G01 X9.0310 Y36.8170
G01 X16.5766 Y48.1355
G01 X82.4691 Y48.1355
G01 X87.4830 Y36.8543
G01 X87.4869 Y36.8461
G01 X87.4915 Y36.8383
G01 X87.4966 Y36.8309
G01 X87.5022 Y36.8238
G01 X87.5534 Y36.7643
G01 X87.5625 Y36.7557
G01 X87.5723 Y36.7481
G01 X87.5829 Y36.7414
G01 X87.5912 Y36.7371
G01 X87.5998 Y36.7335
G01 X87.6087 Y36.7305
G01 X87.6825 Y36.7090
G01 X87.6971 Y36.7064
G01 X87.7119 Y36.7055
G01 X98.4255 Y36.7055
G01 X98.4373 Y36.7061
G01 X98.4491 Y36.7077
G01 X98.5104 Y36.7212
G01 X98.5193 Y36.7240
G01 X98.5279 Y36.7274
G01 X98.5363 Y36.7315
G01 X98.5444 Y36.7362
G01 X98.5521 Y36.7415
G01 X98.5594 Y36.7473
G01 X98.6130 Y36.7938
G01 X98.6220 Y36.8023
G01 X98.6319 Y36.8142
G01 X98.6387 Y36.8245
G01 X98.6457 Y36.8383
G01 X98.6500 Y36.8498
G01 X98.6725 Y36.9266
G01 X98.6751 Y36.9412
G01 X98.6760 Y36.9560
G01 X98.6760 Y60.3205
G01 X98.6754 Y60.3323
G01 X98.6738 Y60.3441
G01 X98.6603 Y60.4054
G01 X98.6575 Y60.4143
G01 X98.6541 Y60.4229
G01 X98.6500 Y60.4313
G01 X98.6453 Y60.4394
G01 X98.6400 Y60.4471
G01 X98.6342 Y60.4544
G01 X98.5877 Y60.5080
G01 X98.5792 Y60.5170
G01 X98.5698 Y60.5250
G01 X98.5570 Y60.5337
G01 X98.5432 Y60.5407
G01 X98.5317 Y60.5450
G01 X98.4549 Y60.5675
G01 X98.4403 Y60.5701
G01 X98.4255 Y60.5710
G01 X78.8749 Y60.5710
G01 X78.7479 Y60.5893
G01 X78.6968 Y60.6042
G01 X78.5843 Y60.6557
G01 X78.5704 Y60.6610
G01 X78.5590 Y60.6641
G01 X78.5036 Y60.6761
G01 X78.4913 Y60.6778
G01 X78.4789 Y60.6783
G01 X78.4634 Y60.6772
G01 X78.4511 Y60.6749
G01 X78.3714 Y60.6515
G01 X78.3604 Y60.6470
G01 X78.3498 Y60.6416
G01 X78.3120 Y60.6175
G01 X78.2290 Y60.5899
G01 X78.1897 Y60.5813
G01 X78.0938 Y60.5710
G01 X59.0684 Y60.5710
G01 X58.9414 Y60.5893
G01 X58.8903 Y60.6042
G01 X58.7778 Y60.6557
G01 X58.7639 Y60.6610
G01 X58.7525 Y60.6641
G01 X58.6971 Y60.6761
G01 X58.6848 Y60.6778
G01 X58.6724 Y60.6783
G01 X58.6569 Y60.6772
G01 X58.6446 Y60.6749
G01 X58.5649 Y60.6515
G01 X58.5539 Y60.6470
G01 X58.5433 Y60.6416
G01 X58.5055 Y60.6175
G01 X58.4225 Y60.5899
G01 X58.3832 Y60.5813
G01 X58.2873 Y60.5710
G01 X38.2349 Y60.5710
G01 X38.1079 Y60.5893
G01 X38.0568 Y60.6042
G01 X37.9483 Y60.6538
G01 X37.8581 Y60.7320
G01 X37.8232 Y60.7722
G01 X37.7575 Y60.8745
G01 X37.7299 Y60.9575
G01 X37.7213 Y60.9968
G01 X37.7110 Y61.0927
G01 X37.7110 Y69.2185
G01 X37.7104 Y69.2273
G01 X37.7088 Y69.2391
G01 X37.6968 Y69.2943
G01 X37.6925 Y69.3093
G01 X37.6878 Y69.3208
G01 X37.6820 Y69.3318
G01 X37.6732 Y69.3446
G01 X37.6207 Y69.4053
G01 X37.6096 Y69.4161
G01 X37.5998 Y69.4237
G01 X37.5893 Y69.4302
G01 X37.5782 Y69.4357
G01 X37.5637 Y69.4410
G01 X37.4956 Y69.4610
G01 X37.4870 Y69.4632
G01 X37.4753 Y69.4651
G01 X37.4605 Y69.4660
G01 X0.6345 Y69.4660
G01 X0.6227 Y69.4654
G01 X0.6109 Y69.4638
G01 X0.5557 Y69.4518
G01 X0.5407 Y69.4475
G01 X0.5292 Y69.4428
G01 X0.5156 Y69.4353
G01 X0.5054 Y69.4282
G01 X0.4424 Y69.3735
G01 X0.4319 Y69.3622
G01 X0.4246 Y69.3522
G01 X0.4169 Y69.3388
G01 X0.4120 Y69.3275
G01 X0.4090 Y69.3187
G01 X0.3882 Y69.2477
G01 X0.3857 Y69.2361
G01 X0.3843 Y69.2244
G00 Z2.0000
G00 X0.2601 Y69.2333
G01 F60.00
G01 Z-0.0355
G01 F120.00
G01 X0.2595 Y69.2155
G01 X0.2595 Y36.9560
G01 X0.2598 Y36.9442
G01 X0.2606 Y36.9323
G01 X0.2629 Y36.9147
G01 X0.2766 Y36.8507
G01 X0.2795 Y36.8386
G01 X0.2851 Y36.8208
G01 X0.2895 Y36.8092
G01 X0.2945 Y36.7978
G01 X0.3031 Y36.7812
G01 X0.3128 Y36.7653
G01 X0.3200 Y36.7552
G01 X0.3277 Y36.7454
G01 X0.3782 Y36.6869
G01 X0.3909 Y36.6734
G01 X0.4045 Y36.6608
G01 X0.4141 Y36.6530
G01 X0.4241 Y36.6457
G01 X0.4344 Y36.6389
G01 X0.4450 Y36.6326
G01 X0.4560 Y36.6268
G01 X0.4672 Y36.6216
G01 X0.4786 Y36.6170
G01 X0.4903 Y36.6129
G01 X0.5643 Y36.5911
G01 X0.5816 Y36.5867
G01 X0.5932 Y36.5844
G01 X0.6049 Y36.5828
G01 X0.6227 Y36.5813
G01 X0.6345 Y36.5810
G01 X8.8226 Y36.5810
G01 X8.8418 Y36.5817
G01 X8.8545 Y36.5831
G01 X8.8672 Y36.5850
G01 X8.9239 Y36.5968
G01 X8.9417 Y36.6012
G01 X8.9533 Y36.6048
G01 X8.9648 Y36.6091
G01 X8.9816 Y36.6165
G01 X8.9925 Y36.6221
G01 X9.0031 Y36.6282
G01 X9.0184 Y36.6384
G01 X9.0329 Y36.6496
G01 X9.0962 Y36.7030
G01 X9.1088 Y36.7155
G01 X9.1167 Y36.7244
G01 X9.1242 Y36.7336
G01 X9.1346 Y36.7480
G01 X16.6433 Y48.0110
G01 X82.3882 Y48.0110
G01 X87.3692 Y36.8037
G01 X87.3771 Y36.7874
G01 X87.3863 Y36.7718
G01 X87.3965 Y36.7569
G01 X87.4039 Y36.7474
G01 X87.4548 Y36.6879
G01 X87.4631 Y36.6786
G01 X87.4719 Y36.6698
G01 X87.4812 Y36.6614
G01 X87.4908 Y36.6535
G01 X87.5008 Y36.6461
G01 X87.5166 Y36.6359
G01 X87.5330 Y36.6270
G01 X87.5501 Y36.6193
G01 X87.5676 Y36.6129
G01 X87.6417 Y36.5911
G01 X87.6590 Y36.5867
G01 X87.6706 Y36.5844
G01 X87.6882 Y36.5821
G01 X87.7000 Y36.5813
G01 X87.7119 Y36.5810
G01 X98.4314 Y36.5811
G01 X98.4433 Y36.5816
G01 X98.4551 Y36.5828
G01 X98.4726 Y36.5855
G01 X98.5308 Y36.5981
G01 X98.5488 Y36.6027
G01 X98.5665 Y36.6087
G01 X98.5837 Y36.6160
G01 X98.6003 Y36.6246
G01 X98.6162 Y36.6343
G01 X98.6263 Y36.6415
G01 X98.6361 Y36.6492
G01 X98.6946 Y36.6997
G01 X98.7081 Y36.7124
G01 X98.7207 Y36.7260
G01 X98.7285 Y36.7356
G01 X98.7358 Y36.7456
G01 X98.7426 Y36.7559
G01 X98.7489 Y36.7665
G01 X98.7547 Y36.7775
G01 X98.7599 Y36.7887
G01 X98.7645 Y36.8001
G01 X98.7686 Y36.8118
G01 X98.7904 Y36.8858
G01 X98.7948 Y36.9031
G01 X98.7971 Y36.9147
G01 X98.7994 Y36.9323
G01 X98.8002 Y36.9442
G01 X98.8005 Y36.9560
G01 X98.8005 Y60.3205
G01 X98.8002 Y60.3323
G01 X98.7994 Y60.3442
G01 X98.7971 Y60.3618
G01 X98.7834 Y60.4258
G01 X98.7805 Y60.4379
G01 X98.7769 Y60.4498
G01 X98.7728 Y60.4615
G01 X98.7655 Y60.4787
G01 X98.7569 Y60.4953
G01 X98.7472 Y60.5112
G01 X98.7400 Y60.5213
G01 X98.7323 Y60.5311
G01 X98.6818 Y60.5896
G01 X98.6691 Y60.6031
G01 X98.6555 Y60.6157
G01 X98.6459 Y60.6235
G01 X98.6359 Y60.6308
G01 X98.6256 Y60.6376
G01 X98.6150 Y60.6439
G01 X98.6040 Y60.6497
G01 X98.5928 Y60.6549
G01 X98.5814 Y60.6595
G01 X98.5697 Y60.6636
G01 X98.4957 Y60.6854
G01 X98.4784 Y60.6898
G01 X98.4609 Y60.6930
G01 X98.4492 Y60.6944
G01 X98.4373 Y60.6952
G01 X98.4255 Y60.6955
G01 X78.8838 Y60.6955
G01 X78.7744 Y60.7112
G01 X78.7404 Y60.7212
G01 X78.6306 Y60.7713
G01 X78.6196 Y60.7757
G01 X78.6084 Y60.7796
G01 X78.5970 Y60.7829
G01 X78.5855 Y60.7857
G01 X78.5331 Y60.7971
G01 X78.5209 Y60.7994
G01 X78.5086 Y60.8012
G01 X78.4962 Y60.8023
G01 X78.4775 Y60.8028
G01 X78.4651 Y60.8023
G01 X78.4527 Y60.8013
G01 X78.4404 Y60.7996
G01 X78.4281 Y60.7973
G01 X78.4100 Y60.7927
G01 X78.3363 Y60.7710
G01 X78.3251 Y60.7671
G01 X78.3141 Y60.7627
G01 X78.2980 Y60.7551
G01 X78.2825 Y60.7464
G01 X78.2578 Y60.7307
G01 X78.1960 Y60.7101
G01 X78.1698 Y60.7044
G01 X78.0872 Y60.6955
G01 X59.0773 Y60.6955
G01 X58.9679 Y60.7112
G01 X58.9339 Y60.7212
G01 X58.8241 Y60.7713
G01 X58.8131 Y60.7757
G01 X58.8019 Y60.7796
G01 X58.7905 Y60.7829
G01 X58.7790 Y60.7857
G01 X58.7266 Y60.7971
G01 X58.7144 Y60.7994
G01 X58.7021 Y60.8012
G01 X58.6897 Y60.8023
G01 X58.6710 Y60.8028
G01 X58.6586 Y60.8023
G01 X58.6462 Y60.8013
G01 X58.6339 Y60.7996
G01 X58.6216 Y60.7973
G01 X58.6035 Y60.7927
G01 X58.5298 Y60.7710
G01 X58.5186 Y60.7671
G01 X58.5076 Y60.7627
G01 X58.4915 Y60.7551
G01 X58.4760 Y60.7464
G01 X58.4513 Y60.7307
G01 X58.3895 Y60.7101
G01 X58.3633 Y60.7044
G01 X58.2807 Y60.6955
G01 X38.2438 Y60.6955
G01 X38.1344 Y60.7112
G01 X38.1004 Y60.7212
G01 X38.0163 Y60.7596
G01 X37.9463 Y60.8203
G01 X37.9232 Y60.8470
G01 X37.8707 Y60.9287
G01 X37.8501 Y60.9905
G01 X37.8444 Y61.0167
G01 X37.8355 Y61.0993
G01 X37.8355 Y69.2155
G01 X37.8352 Y69.2273
G01 X37.8337 Y69.2451
G01 X37.8310 Y69.2626
G01 X37.8170 Y69.3268
G01 X37.8138 Y69.3388
G01 X37.8099 Y69.3507
G01 X37.8055 Y69.3623
G01 X37.8005 Y69.3737
G01 X37.7949 Y69.3848
G01 X37.7888 Y69.3957
G01 X37.7822 Y69.4062
G01 X37.7750 Y69.4163
G01 X37.7633 Y69.4309
G01 X37.7127 Y69.4892
G01 X37.7041 Y69.4981
G01 X37.6952 Y69.5066
G01 X37.6809 Y69.5185
G01 X37.6709 Y69.5258
G01 X37.6606 Y69.5326
G01 X37.6500 Y69.5389
G01 X37.6390 Y69.5447
G01 X37.6221 Y69.5523
G01 X37.6047 Y69.5586
G01 X37.5307 Y69.5804
G01 X37.5134 Y69.5848
G01 X37.5018 Y69.5871
G01 X37.4842 Y69.5894
G01 X37.4723 Y69.5902
G01 X37.4605 Y69.5905
G01 X0.6345 Y69.5905
G01 X0.6167 Y69.5899
G01 X0.6049 Y69.5887
G01 X0.5932 Y69.5871
G01 X0.5292 Y69.5734
G01 X0.5171 Y69.5705
G01 X0.5052 Y69.5669
G01 X0.4877 Y69.5605
G01 X0.4763 Y69.5555
G01 X0.4652 Y69.5499
G01 X0.4543 Y69.5438
G01 X0.4438 Y69.5372
G01 X0.4287 Y69.5262
G01 X0.4191 Y69.5183
G01 X0.3654 Y69.4718
G01 X0.3563 Y69.4635
G01 X0.3476 Y69.4547
G01 X0.3393 Y69.4455
G01 X0.3315 Y69.4359
G01 X0.3242 Y69.4259
G01 X0.3174 Y69.4156
G01 X0.3081 Y69.3995
G01 X0.3027 Y69.3885
G01 X0.2977 Y69.3771
G01 X0.2934 Y69.3655
G01 X0.2896 Y69.3538
G01 X0.2680 Y69.2799
G01 X0.2652 Y69.2684
G01 X0.2629 Y69.2568
G01 X0.2613 Y69.2451
G01 X0.2601 Y69.2333
G00 Z2.0000
G00 X-0.1124 Y36.2349
G01 F60.00
G01 Z-0.0355
G01 F120.00
G01 X-0.1133 Y36.2201
G01 X-0.1140 Y36.1905
G01 X-0.1138 Y0.6197
G01 X-0.1124 Y0.5901
G01 X-0.1096 Y0.5606
G01 X-0.1077 Y0.5459
G01 X-0.1028 Y0.5167
G01 X-0.0849 Y0.4347
G01 X-0.0768 Y0.4047
G01 X-0.0721 Y0.3898
G01 X-0.0672 Y0.3751
G01 X-0.0561 Y0.3460
G01 X-0.0436 Y0.3175
G01 X-0.0368 Y0.3035
G01 X-0.0296 Y0.2897
G01 X-0.0143 Y0.2626
G01 X-0.0062 Y0.2494
G01 X0.0111 Y0.2235
G01 X0.0202 Y0.2109
G01 X0.0394 Y0.1864
G01 X0.1062 Y0.1093
G01 X0.1276 Y0.0870
G01 X0.1387 Y0.0762
G01 X0.1500 Y0.0657
G01 X0.1735 Y0.0456
G01 X0.1980 Y0.0267
G01 X0.2106 Y0.0177
G01 X0.2364 Y0.0007
G01 X0.2630 Y-0.0151
G01 X0.2766 Y-0.0224
G01 X0.3043 Y-0.0361
G01 X0.3326 Y-0.0484
G01 X0.3616 Y-0.0593
G01 X0.3910 Y-0.0688
G01 X0.4734 Y-0.0928
G01 X0.5022 Y-0.0998
G01 X0.5167 Y-0.1028
G01 X0.5459 Y-0.1077
G01 X0.5753 Y-0.1112
G01 X0.6049 Y-0.1133
G01 X0.6345 Y-0.1140
G01 X98.4255 Y-0.1140
G01 X98.4403 Y-0.1138
G01 X98.4699 Y-0.1124
G01 X98.4994 Y-0.1096
G01 X98.5287 Y-0.1054
G01 X98.5578 Y-0.0998
G01 X98.6102 Y-0.0884
G01 X98.6253 Y-0.0849
G01 X98.6553 Y-0.0768
G01 X98.6702 Y-0.0721
G01 X98.6995 Y-0.0618
G01 X98.7283 Y-0.0500
G01 X98.7425 Y-0.0436
G01 X98.7565 Y-0.0368
G01 X98.7839 Y-0.0222
G01 X98.8106 Y-0.0062
G01 X98.8237 Y0.0023
G01 X98.8491 Y0.0202
G01 X98.8736 Y0.0394
G01 X98.9507 Y0.1062
G01 X98.9620 Y0.1167
G01 X98.9838 Y0.1387
G01 X98.9943 Y0.1500
G01 X99.0144 Y0.1735
G01 X99.0333 Y0.1980
G01 X99.0510 Y0.2234
G01 X99.0593 Y0.2364
G01 X99.0751 Y0.2630
G01 X99.0824 Y0.2766
G01 X99.0961 Y0.3043
G01 X99.1084 Y0.3326
G01 X99.1193 Y0.3616
G01 X99.1288 Y0.3910
G01 X99.1528 Y0.4734
G01 X99.1565 Y0.4877
G01 X99.1628 Y0.5167
G01 X99.1677 Y0.5459
G01 X99.1712 Y0.5753
G01 X99.1733 Y0.6049
G01 X99.1740 Y0.6345
G01 X99.1740 Y36.1905
G01 X99.1733 Y36.2201
G01 X99.1724 Y36.2349
G01 X99.1696 Y36.2644
G01 X99.1677 Y36.2791
G01 X99.1628 Y36.3083
G01 X99.1598 Y36.3228
G01 X99.1484 Y36.3752
G01 X99.1410 Y36.4054
G01 X99.1321 Y36.4352
G01 X99.1272 Y36.4499
G01 X99.1218 Y36.4645
G01 X99.1100 Y36.4933
G01 X99.1036 Y36.5075
G01 X99.0896 Y36.5353
G01 X99.0822 Y36.5489
G01 X99.0681 Y36.5725
G01 X99.0824 Y36.5981
G01 X99.0961 Y36.6258
G01 X99.1025 Y36.6399
G01 X99.1141 Y36.6685
G01 X99.1242 Y36.6977
G01 X99.1288 Y36.7125
G01 X99.1528 Y36.7949
G01 X99.1598 Y36.8237
G01 X99.1628 Y36.8382
G01 X99.1654 Y36.8528
G01 X99.1696 Y36.8821
G01 X99.1724 Y36.9116
G01 X99.1733 Y36.9264
G01 X99.1740 Y36.9560
G01 X99.1740 Y60.3205
G01 X99.1733 Y60.3501
G01 X99.1724 Y60.3649
G01 X99.1696 Y60.3944
G01 X99.1677 Y60.4091
G01 X99.1628 Y60.4383
G01 X99.1598 Y60.4528
G01 X99.1484 Y60.5052
G01 X99.1410 Y60.5354
G01 X99.1321 Y60.5652
G01 X99.1272 Y60.5799
G01 X99.1218 Y60.5945
G01 X99.1100 Y60.6233
G01 X99.0968 Y60.6515
G01 X99.0896 Y60.6653
G01 X99.0822 Y60.6789
G01 X99.0681 Y60.7025
G01 X99.0824 Y60.7281
G01 X99.0961 Y60.7558
G01 X99.1025 Y60.7699
G01 X99.1141 Y60.7985
G01 X99.1242 Y60.8277
G01 X99.1488 Y60.9106
G01 X99.1528 Y60.9249
G01 X99.1598 Y60.9537
G01 X99.1628 Y60.9682
G01 X99.1677 Y60.9974
G01 X99.1696 Y61.0121
G01 X99.1724 Y61.0416
G01 X99.1738 Y61.0712
G01 X99.1740 Y69.2155
G01 X99.1733 Y69.2451
G01 X99.1712 Y69.2747
G01 X99.1696 Y69.2894
G01 X99.1654 Y69.3187
G01 X99.1598 Y69.3478
G01 X99.1484 Y69.4002
G01 X99.1449 Y69.4153
G01 X99.1368 Y69.4453
G01 X99.1272 Y69.4749
G01 X99.1218 Y69.4895
G01 X99.1100 Y69.5183
G01 X99.1036 Y69.5325
G01 X99.0968 Y69.5465
G01 X99.0822 Y69.5739
G01 X99.0662 Y69.6006
G01 X99.0577 Y69.6137
G01 X99.0398 Y69.6391
G01 X99.0206 Y69.6636
G01 X98.9538 Y69.7407
G01 X98.9324 Y69.7630
G01 X98.9213 Y69.7738
G01 X98.9100 Y69.7843
G01 X98.8865 Y69.8044
G01 X98.8620 Y69.8233
G01 X98.8366 Y69.8410
G01 X98.8236 Y69.8493
G01 X98.7970 Y69.8651
G01 X98.7834 Y69.8724
G01 X98.7557 Y69.8861
G01 X98.7274 Y69.8984
G01 X98.6984 Y69.9093
G01 X98.6690 Y69.9188
G01 X98.5866 Y69.9428
G01 X98.5578 Y69.9498
G01 X98.5433 Y69.9528
G01 X98.5141 Y69.9577
G01 X98.4847 Y69.9612
G01 X98.4551 Y69.9633
G01 X98.4255 Y69.9640
G01 X78.8660 Y69.9640
G01 X78.8364 Y69.9633
G01 X78.8216 Y69.9624
G01 X78.7921 Y69.9596
G01 X78.7774 Y69.9577
G01 X78.7628 Y69.9554
G01 X78.7337 Y69.9498
G01 X78.6813 Y69.9384
G01 X78.6511 Y69.9310
G01 X78.6362 Y69.9268
G01 X78.6066 Y69.9172
G01 X78.5920 Y69.9118
G01 X78.5632 Y69.9000
G01 X78.5350 Y69.8868
G01 X78.5212 Y69.8796
G01 X78.5076 Y69.8722
G01 X78.4840 Y69.8581
G01 X78.4584 Y69.8724
G01 X78.4307 Y69.8861
G01 X78.4166 Y69.8925
G01 X78.3880 Y69.9041
G01 X78.3588 Y69.9142
G01 X78.3440 Y69.9188
G01 X78.2616 Y69.9428
G01 X78.2473 Y69.9465
G01 X78.2183 Y69.9528
G01 X78.1891 Y69.9577
G01 X78.1597 Y69.9612
G01 X78.1449 Y69.9624
G01 X78.1301 Y69.9633
G01 X78.1005 Y69.9640
G01 X59.0595 Y69.9640
G01 X59.0299 Y69.9633
G01 X59.0151 Y69.9624
G01 X58.9856 Y69.9596
G01 X58.9709 Y69.9577
G01 X58.9563 Y69.9554
G01 X58.9272 Y69.9498
G01 X58.8748 Y69.9384
G01 X58.8446 Y69.9310
G01 X58.8148 Y69.9221
G01 X58.8001 Y69.9172
G01 X58.7855 Y69.9118
G01 X58.7567 Y69.9000
G01 X58.7285 Y69.8868
G01 X58.7147 Y69.8796
G01 X58.7011 Y69.8722
G01 X58.6775 Y69.8581
G01 X58.6519 Y69.8724
G01 X58.6242 Y69.8861
G01 X58.5959 Y69.8984
G01 X58.5815 Y69.9041
G01 X58.5523 Y69.9142
G01 X58.5375 Y69.9188
G01 X58.4551 Y69.9428
G01 X58.4408 Y69.9465
G01 X58.4118 Y69.9528
G01 X58.3972 Y69.9554
G01 X58.3679 Y69.9596
G01 X58.3384 Y69.9624
G01 X58.3088 Y69.9638
G01 X58.2940 Y69.9640
G01 X38.2260 Y69.9640
G01 X38.2112 Y69.9638
G01 X38.1816 Y69.9624
G01 X38.1521 Y69.9596
G01 X38.1374 Y69.9577
G01 X38.1082 Y69.9528
G01 X38.0937 Y69.9498
G01 X38.0413 Y69.9384
G01 X38.0111 Y69.9310
G01 X37.9813 Y69.9221
G01 X37.9666 Y69.9172
G01 X37.9520 Y69.9118
G01 X37.9232 Y69.9000
G01 X37.8950 Y69.8868
G01 X37.8812 Y69.8796
G01 X37.8676 Y69.8722
G01 X37.8440 Y69.8581
G01 X37.8184 Y69.8724
G01 X37.7907 Y69.8861
G01 X37.7624 Y69.8984
G01 X37.7480 Y69.9041
G01 X37.7188 Y69.9142
G01 X37.7040 Y69.9188
G01 X37.6216 Y69.9428
G01 X37.5928 Y69.9498
G01 X37.5783 Y69.9528
G01 X37.5491 Y69.9577
G01 X37.5344 Y69.9596
G01 X37.5049 Y69.9624
G01 X37.4753 Y69.9638
G01 X37.4605 Y69.9640
G01 X0.6345 Y69.9640
G01 X0.6049 Y69.9633
G01 X0.5753 Y69.9612
G01 X0.5459 Y69.9577
G01 X0.5167 Y69.9528
G01 X0.4347 Y69.9349
G01 X0.4047 Y69.9268
G01 X0.3751 Y69.9172
G01 X0.3605 Y69.9118
G01 X0.3317 Y69.9000
G01 X0.3035 Y69.8868
G01 X0.2897 Y69.8796
G01 X0.2626 Y69.8643
G01 X0.2363 Y69.8477
G01 X0.2109 Y69.8298
G01 X0.1985 Y69.8203
G01 X0.1745 Y69.8006
G01 X0.1209 Y69.7541
G01 X0.1093 Y69.7438
G01 X0.0870 Y69.7224
G01 X0.0762 Y69.7113
G01 X0.0555 Y69.6883
G01 X0.0360 Y69.6644
G01 X0.0177 Y69.6394
G01 X0.0090 Y69.6266
G01 X-0.0073 Y69.6004
G01 X-0.0224 Y69.5734
G01 X-0.0294 Y69.5597
G01 X-0.0361 Y69.5457
G01 X-0.0484 Y69.5174
G01 X-0.0541 Y69.5030
G01 X-0.0642 Y69.4738
G01 X-0.0928 Y69.3766
G01 X-0.0965 Y69.3623
G01 X-0.1028 Y69.3333
G01 X-0.1077 Y69.3041
G01 X-0.1112 Y69.2747
G01 X-0.1133 Y69.2451
G01 X-0.1138 Y69.2303
G01 X-0.1140 Y36.9560
G01 X-0.1133 Y36.9264
G01 X-0.1124 Y36.9116
G01 X-0.1112 Y36.8968
G01 X-0.1077 Y36.8674
G01 X-0.1028 Y36.8382
G01 X-0.0998 Y36.8237
G01 X-0.0884 Y36.7713
G01 X-0.0810 Y36.7411
G01 X-0.0768 Y36.7262
G01 X-0.0672 Y36.6966
G01 X-0.0618 Y36.6820
G01 X-0.0500 Y36.6532
G01 X-0.0436 Y36.6390
G01 X-0.0296 Y36.6112
G01 X-0.0222 Y36.5976
G01 X-0.0081 Y36.5740
G01 X-0.0224 Y36.5484
G01 X-0.0294 Y36.5347
G01 X-0.0425 Y36.5066
G01 X-0.0541 Y36.4780
G01 X-0.0642 Y36.4488
G01 X-0.0888 Y36.3659
G01 X-0.0928 Y36.3516
G01 X-0.0998 Y36.3228
G01 X-0.1028 Y36.3083
G01 X-0.1077 Y36.2791
G01 X-0.1096 Y36.2644
G01 X-0.1124 Y36.2349
G00 Z2.0000
G00 X0.0118 Y36.2260
G01 F60.00
G01 Z-0.0355
G01 F120.00
G01 X0.0111 Y36.2142
G01 X0.0105 Y36.1905
G01 X0.0105 Y0.6345
G01 X0.0111 Y0.6108
G01 X0.0118 Y0.5990
G01 X0.0140 Y0.5754
G01 X0.0174 Y0.5519
G01 X0.0219 Y0.5286
G01 X0.0333 Y0.4763
G01 X0.0361 Y0.4642
G01 X0.0426 Y0.4402
G01 X0.0463 Y0.4283
G01 X0.0545 Y0.4048
G01 X0.0591 Y0.3932
G01 X0.0691 Y0.3704
G01 X0.0803 Y0.3482
G01 X0.0863 Y0.3373
G01 X0.0925 Y0.3265
G01 X0.1058 Y0.3055
G01 X0.1202 Y0.2851
G01 X0.1355 Y0.2655
G01 X0.1982 Y0.1931
G01 X0.2067 Y0.1841
G01 X0.2242 Y0.1667
G01 X0.2333 Y0.1583
G01 X0.2521 Y0.1422
G01 X0.2618 Y0.1345
G01 X0.2817 Y0.1199
G01 X0.3024 Y0.1062
G01 X0.3237 Y0.0937
G01 X0.3345 Y0.0878
G01 X0.3567 Y0.0768
G01 X0.3794 Y0.0669
G01 X0.4025 Y0.0582
G01 X0.4261 Y0.0507
G01 X0.4942 Y0.0307
G01 X0.5171 Y0.0245
G01 X0.5286 Y0.0219
G01 X0.5519 Y0.0174
G01 X0.5636 Y0.0156
G01 X0.5872 Y0.0128
G01 X0.6108 Y0.0111
G01 X0.6345 Y0.0105
G01 X98.4255 Y0.0105
G01 X98.4492 Y0.0111
G01 X98.4728 Y0.0128
G01 X98.4964 Y0.0156
G01 X98.5081 Y0.0174
G01 X98.5314 Y0.0219
G01 X98.5837 Y0.0333
G01 X98.6079 Y0.0392
G01 X98.6198 Y0.0426
G01 X98.6435 Y0.0503
G01 X98.6552 Y0.0545
G01 X98.6668 Y0.0591
G01 X98.6896 Y0.0691
G01 X98.7008 Y0.0746
G01 X98.7227 Y0.0863
G01 X98.7441 Y0.0990
G01 X98.7545 Y0.1058
G01 X98.7749 Y0.1202
G01 X98.7945 Y0.1355
G01 X98.8669 Y0.1982
G01 X98.8847 Y0.2153
G01 X98.8933 Y0.2242
G01 X98.9017 Y0.2333
G01 X98.9178 Y0.2521
G01 X98.9329 Y0.2717
G01 X98.9471 Y0.2920
G01 X98.9602 Y0.3129
G01 X98.9663 Y0.3237
G01 X98.9779 Y0.3455
G01 X98.9883 Y0.3680
G01 X98.9931 Y0.3794
G01 X99.0018 Y0.4025
G01 X99.0093 Y0.4261
G01 X99.0293 Y0.4942
G01 X99.0355 Y0.5171
G01 X99.0381 Y0.5286
G01 X99.0426 Y0.5519
G01 X99.0460 Y0.5754
G01 X99.0472 Y0.5872
G01 X99.0489 Y0.6108
G01 X99.0495 Y0.6345
G01 X99.0495 Y36.1905
G01 X99.0489 Y36.2142
G01 X99.0472 Y36.2378
G01 X99.0444 Y36.2614
G01 X99.0405 Y36.2847
G01 X99.0239 Y36.3608
G01 X99.0174 Y36.3848
G01 X99.0097 Y36.4085
G01 X99.0009 Y36.4318
G01 X98.9909 Y36.4546
G01 X98.9797 Y36.4768
G01 X98.9675 Y36.4985
G01 X98.9542 Y36.5195
G01 X98.9398 Y36.5399
G01 X98.9245 Y36.5595
G01 X98.9152 Y36.5705
G01 X98.9255 Y36.5833
G01 X98.9401 Y36.6032
G01 X98.9538 Y36.6239
G01 X98.9663 Y36.6452
G01 X98.9779 Y36.6670
G01 X98.9832 Y36.6782
G01 X98.9931 Y36.7009
G01 X99.0018 Y36.7240
G01 X99.0093 Y36.7476
G01 X99.0293 Y36.8157
G01 X99.0325 Y36.8271
G01 X99.0381 Y36.8501
G01 X99.0426 Y36.8734
G01 X99.0460 Y36.8969
G01 X99.0482 Y36.9205
G01 X99.0489 Y36.9323
G01 X99.0495 Y36.9560
G01 X99.0495 Y60.3205
G01 X99.0489 Y60.3442
G01 X99.0472 Y60.3678
G01 X99.0444 Y60.3914
G01 X99.0405 Y60.4147
G01 X99.0239 Y60.4908
G01 X99.0174 Y60.5148
G01 X99.0097 Y60.5385
G01 X99.0009 Y60.5618
G01 X98.9909 Y60.5846
G01 X98.9797 Y60.6068
G01 X98.9675 Y60.6285
G01 X98.9542 Y60.6495
G01 X98.9398 Y60.6699
G01 X98.9245 Y60.6895
G01 X98.9152 Y60.7005
G01 X98.9255 Y60.7133
G01 X98.9401 Y60.7332
G01 X98.9538 Y60.7539
G01 X98.9663 Y60.7752
G01 X98.9779 Y60.7970
G01 X98.9883 Y60.8195
G01 X98.9976 Y60.8424
G01 X99.0018 Y60.8540
G01 X99.0093 Y60.8776
G01 X99.0293 Y60.9457
G01 X99.0355 Y60.9686
G01 X99.0381 Y60.9801
G01 X99.0426 Y61.0034
G01 X99.0460 Y61.0269
G01 X99.0482 Y61.0505
G01 X99.0494 Y61.0741
G01 X99.0495 Y69.2155
G01 X99.0494 Y69.2274
G01 X99.0482 Y69.2510
G01 X99.0460 Y69.2746
G01 X99.0426 Y69.2981
G01 X99.0381 Y69.3214
G01 X99.0267 Y69.3737
G01 X99.0208 Y69.3979
G01 X99.0174 Y69.4098
G01 X99.0137 Y69.4217
G01 X99.0055 Y69.4452
G01 X98.9960 Y69.4682
G01 X98.9909 Y69.4796
G01 X98.9797 Y69.5018
G01 X98.9737 Y69.5127
G01 X98.9675 Y69.5235
G01 X98.9542 Y69.5445
G01 X98.9398 Y69.5649
G01 X98.9245 Y69.5845
G01 X98.8618 Y69.6569
G01 X98.8533 Y69.6659
G01 X98.8358 Y69.6833
G01 X98.8267 Y69.6917
G01 X98.8079 Y69.7078
G01 X98.7982 Y69.7155
G01 X98.7783 Y69.7301
G01 X98.7576 Y69.7438
G01 X98.7363 Y69.7563
G01 X98.7255 Y69.7622
G01 X98.7033 Y69.7732
G01 X98.6806 Y69.7831
G01 X98.6575 Y69.7918
G01 X98.6339 Y69.7993
G01 X98.5658 Y69.8193
G01 X98.5429 Y69.8255
G01 X98.5314 Y69.8281
G01 X98.5081 Y69.8326
G01 X98.4846 Y69.8360
G01 X98.4728 Y69.8372
G01 X98.4492 Y69.8389
G01 X98.4255 Y69.8395
G01 X78.8660 Y69.8395
G01 X78.8423 Y69.8389
G01 X78.8187 Y69.8372
G01 X78.7951 Y69.8344
G01 X78.7718 Y69.8305
G01 X78.6957 Y69.8139
G01 X78.6717 Y69.8074
G01 X78.6480 Y69.7997
G01 X78.6247 Y69.7909
G01 X78.6019 Y69.7809
G01 X78.5797 Y69.7697
G01 X78.5580 Y69.7575
G01 X78.5370 Y69.7442
G01 X78.5166 Y69.7298
G01 X78.4970 Y69.7145
G01 X78.4860 Y69.7052
G01 X78.4732 Y69.7155
G01 X78.4533 Y69.7301
G01 X78.4326 Y69.7438
G01 X78.4113 Y69.7563
G01 X78.4005 Y69.7622
G01 X78.3783 Y69.7732
G01 X78.3556 Y69.7831
G01 X78.3325 Y69.7918
G01 X78.3089 Y69.7993
G01 X78.2408 Y69.8193
G01 X78.2179 Y69.8255
G01 X78.2064 Y69.8281
G01 X78.1947 Y69.8305
G01 X78.1714 Y69.8344
G01 X78.1478 Y69.8372
G01 X78.1242 Y69.8389
G01 X78.1005 Y69.8395
G01 X59.0595 Y69.8395
G01 X59.0358 Y69.8389
G01 X59.0122 Y69.8372
G01 X58.9886 Y69.8344
G01 X58.9653 Y69.8305
G01 X58.8892 Y69.8139
G01 X58.8652 Y69.8074
G01 X58.8415 Y69.7997
G01 X58.8182 Y69.7909
G01 X58.7954 Y69.7809
G01 X58.7732 Y69.7697
G01 X58.7515 Y69.7575
G01 X58.7305 Y69.7442
G01 X58.7101 Y69.7298
G01 X58.6905 Y69.7145
G01 X58.6795 Y69.7052
G01 X58.6667 Y69.7155
G01 X58.6468 Y69.7301
G01 X58.6261 Y69.7438
G01 X58.6048 Y69.7563
G01 X58.5830 Y69.7679
G01 X58.5605 Y69.7783
G01 X58.5491 Y69.7831
G01 X58.5260 Y69.7918
G01 X58.5024 Y69.7993
G01 X58.4343 Y69.8193
G01 X58.4229 Y69.8225
G01 X58.3999 Y69.8281
G01 X58.3766 Y69.8326
G01 X58.3649 Y69.8344
G01 X58.3413 Y69.8372
G01 X58.3177 Y69.8389
G01 X58.2940 Y69.8395
G01 X38.2260 Y69.8395
G01 X38.2023 Y69.8389
G01 X38.1787 Y69.8372
G01 X38.1551 Y69.8344
G01 X38.1318 Y69.8305
G01 X38.0557 Y69.8139
G01 X38.0317 Y69.8074
G01 X38.0080 Y69.7997
G01 X37.9847 Y69.7909
G01 X37.9619 Y69.7809
G01 X37.9397 Y69.7697
G01 X37.9180 Y69.7575
G01 X37.8970 Y69.7442
G01 X37.8766 Y69.7298
G01 X37.8570 Y69.7145
G01 X37.8460 Y69.7052
G01 X37.8332 Y69.7155
G01 X37.8133 Y69.7301
G01 X37.7926 Y69.7438
G01 X37.7713 Y69.7563
G01 X37.7495 Y69.7679
G01 X37.7270 Y69.7783
G01 X37.7156 Y69.7831
G01 X37.6925 Y69.7918
G01 X37.6689 Y69.7993
G01 X37.6008 Y69.8193
G01 X37.5894 Y69.8225
G01 X37.5664 Y69.8281
G01 X37.5547 Y69.8305
G01 X37.5314 Y69.8344
G01 X37.5078 Y69.8372
G01 X37.4842 Y69.8389
G01 X37.4605 Y69.8395
G01 X0.6345 Y69.8395
G01 X0.6108 Y69.8389
G01 X0.5872 Y69.8372
G01 X0.5636 Y69.8344
G01 X0.5403 Y69.8305
G01 X0.4642 Y69.8139
G01 X0.4402 Y69.8074
G01 X0.4165 Y69.7997
G01 X0.3932 Y69.7909
G01 X0.3704 Y69.7809
G01 X0.3592 Y69.7754
G01 X0.3373 Y69.7637
G01 X0.3265 Y69.7575
G01 X0.3055 Y69.7442
G01 X0.2952 Y69.7371
G01 X0.2752 Y69.7223
G01 X0.2560 Y69.7065
G01 X0.2024 Y69.6600
G01 X0.1931 Y69.6518
G01 X0.1753 Y69.6347
G01 X0.1667 Y69.6258
G01 X0.1501 Y69.6074
G01 X0.1345 Y69.5882
G01 X0.1199 Y69.5683
G01 X0.1129 Y69.5580
G01 X0.0998 Y69.5371
G01 X0.0937 Y69.5263
G01 X0.0821 Y69.5045
G01 X0.0768 Y69.4933
G01 X0.0669 Y69.4706
G01 X0.0624 Y69.4591
G01 X0.0543 Y69.4357
G01 X0.0307 Y69.3558
G01 X0.0275 Y69.3444
G01 X0.0219 Y69.3214
G01 X0.0174 Y69.2981
G01 X0.0140 Y69.2746
G01 X0.0118 Y69.2510
G01 X0.0106 Y69.2274
G01 X0.0105 Y36.9560
G01 X0.0111 Y36.9323
G01 X0.0128 Y36.9087
G01 X0.0156 Y36.8851
G01 X0.0195 Y36.8618
G01 X0.0361 Y36.7857
G01 X0.0426 Y36.7617
G01 X0.0503 Y36.7380
G01 X0.0591 Y36.7147
G01 X0.0691 Y36.6919
G01 X0.0803 Y36.6697
G01 X0.0925 Y36.6480
G01 X0.1058 Y36.6270
G01 X0.1202 Y36.6066
G01 X0.1355 Y36.5870
G01 X0.1448 Y36.5760
G01 X0.1345 Y36.5632
G01 X0.1199 Y36.5433
G01 X0.1129 Y36.5330
G01 X0.0998 Y36.5121
G01 X0.0937 Y36.5013
G01 X0.0821 Y36.4795
G01 X0.0717 Y36.4570
G01 X0.0624 Y36.4341
G01 X0.0582 Y36.4225
G01 X0.0507 Y36.3989
G01 X0.0307 Y36.3308
G01 X0.0245 Y36.3079
G01 X0.0195 Y36.2847
G01 X0.0156 Y36.2614
G01 X0.0128 Y36.2378
G01 X0.0118 Y36.2260
G00 Z2.0000
G00 X0.1360 Y36.2171
G01 F60.00
G01 Z-0.0355
G01 F120.00
G01 X0.1350 Y36.1905
G01 X0.1350 Y0.6345
G01 X0.1360 Y0.6079
G01 X0.1376 Y0.5902
G01 X0.1402 Y0.5726
G01 X0.1435 Y0.5551
G01 X0.1549 Y0.5028
G01 X0.1619 Y0.4757
G01 X0.1709 Y0.4491
G01 X0.1818 Y0.4234
G01 X0.1947 Y0.3985
G01 X0.2093 Y0.3747
G01 X0.2201 Y0.3594
G01 X0.2316 Y0.3447
G01 X0.2841 Y0.2839
G01 X0.3031 Y0.2636
G01 X0.3235 Y0.2447
G01 X0.3379 Y0.2330
G01 X0.3529 Y0.2220
G01 X0.3763 Y0.2070
G01 X0.3925 Y0.1980
G01 X0.4091 Y0.1897
G01 X0.4261 Y0.1823
G01 X0.4435 Y0.1758
G01 X0.4612 Y0.1701
G01 X0.5293 Y0.1501
G01 X0.5551 Y0.1435
G01 X0.5813 Y0.1388
G01 X0.5990 Y0.1367
G01 X0.6167 Y0.1354
G01 X0.6345 Y0.1350
G01 X98.4255 Y0.1350
G01 X98.4521 Y0.1360
G01 X98.4698 Y0.1376
G01 X98.4874 Y0.1402
G01 X98.5049 Y0.1435
G01 X98.5572 Y0.1549
G01 X98.5843 Y0.1619
G01 X98.6109 Y0.1709
G01 X98.6366 Y0.1818
G01 X98.6615 Y0.1947
G01 X98.6853 Y0.2093
G01 X98.7006 Y0.2201
G01 X98.7153 Y0.2316
G01 X98.7761 Y0.2841
G01 X98.7964 Y0.3031
G01 X98.8153 Y0.3235
G01 X98.8326 Y0.3453
G01 X98.8432 Y0.3606
G01 X98.8530 Y0.3763
G01 X98.8620 Y0.3925
G01 X98.8703 Y0.4091
G01 X98.8777 Y0.4261
G01 X98.8842 Y0.4435
G01 X98.8899 Y0.4612
G01 X98.9099 Y0.5293
G01 X98.9165 Y0.5551
G01 X98.9198 Y0.5726
G01 X98.9233 Y0.5990
G01 X98.9246 Y0.6167
G01 X98.9250 Y0.6345
G01 X98.9250 Y36.1905
G01 X98.9240 Y36.2171
G01 X98.9212 Y36.2437
G01 X98.9165 Y36.2699
G01 X98.9051 Y36.3222
G01 X98.9007 Y36.3404
G01 X98.8953 Y36.3583
G01 X98.8857 Y36.3845
G01 X98.8782 Y36.4016
G01 X98.8653 Y36.4265
G01 X98.8558 Y36.4425
G01 X98.8454 Y36.4580
G01 X98.8343 Y36.4730
G01 X98.8224 Y36.4874
G01 X98.7697 Y36.5480
G01 X98.7569 Y36.5614
G01 X98.7416 Y36.5757
G01 X98.7761 Y36.6056
G01 X98.7898 Y36.6181
G01 X98.8029 Y36.6313
G01 X98.8153 Y36.6450
G01 X98.8270 Y36.6594
G01 X98.8432 Y36.6821
G01 X98.8530 Y36.6978
G01 X98.8663 Y36.7223
G01 X98.8777 Y36.7476
G01 X98.8871 Y36.7738
G01 X98.9099 Y36.8508
G01 X98.9145 Y36.8679
G01 X98.9183 Y36.8853
G01 X98.9224 Y36.9117
G01 X98.9240 Y36.9294
G01 X98.9250 Y36.9560
G01 X98.9250 Y60.3205
G01 X98.9240 Y60.3471
G01 X98.9212 Y60.3737
G01 X98.9165 Y60.3999
G01 X98.9051 Y60.4522
G01 X98.8981 Y60.4793
G01 X98.8923 Y60.4971
G01 X98.8857 Y60.5145
G01 X98.8782 Y60.5316
G01 X98.8698 Y60.5483
G01 X98.8606 Y60.5646
G01 X98.8454 Y60.5880
G01 X98.8343 Y60.6030
G01 X98.8224 Y60.6174
G01 X98.7697 Y60.6780
G01 X98.7569 Y60.6914
G01 X98.7416 Y60.7057
G01 X98.7761 Y60.7356
G01 X98.7898 Y60.7481
G01 X98.8029 Y60.7613
G01 X98.8153 Y60.7750
G01 X98.8270 Y60.7894
G01 X98.8432 Y60.8121
G01 X98.8530 Y60.8278
G01 X98.8663 Y60.8523
G01 X98.8741 Y60.8691
G01 X98.8842 Y60.8950
G01 X98.8899 Y60.9127
G01 X98.9123 Y60.9893
G01 X98.9165 Y61.0066
G01 X98.9212 Y61.0328
G01 X98.9233 Y61.0505
G01 X98.9249 Y61.0771
G01 X98.9250 Y69.2155
G01 X98.9240 Y69.2421
G01 X98.9224 Y69.2598
G01 X98.9198 Y69.2774
G01 X98.9165 Y69.2949
G01 X98.9051 Y69.3472
G01 X98.8981 Y69.3743
G01 X98.8891 Y69.4009
G01 X98.8782 Y69.4266
G01 X98.8653 Y69.4515
G01 X98.8507 Y69.4753
G01 X98.8399 Y69.4906
G01 X98.8284 Y69.5053
G01 X98.7759 Y69.5661
G01 X98.7569 Y69.5864
G01 X98.7365 Y69.6053
G01 X98.7221 Y69.6170
G01 X98.7071 Y69.6280
G01 X98.6916 Y69.6382
G01 X98.6757 Y69.6476
G01 X98.6509 Y69.6603
G01 X98.6339 Y69.6677
G01 X98.6165 Y69.6742
G01 X98.5988 Y69.6799
G01 X98.5307 Y69.6999
G01 X98.5049 Y69.7065
G01 X98.4874 Y69.7098
G01 X98.4610 Y69.7133
G01 X98.4433 Y69.7146
G01 X98.4255 Y69.7150
G01 X78.8660 Y69.7150
G01 X78.8394 Y69.7140
G01 X78.8128 Y69.7112
G01 X78.7866 Y69.7065
G01 X78.7343 Y69.6951
G01 X78.7161 Y69.6907
G01 X78.6982 Y69.6853
G01 X78.6720 Y69.6757
G01 X78.6549 Y69.6682
G01 X78.6300 Y69.6553
G01 X78.6140 Y69.6458
G01 X78.5985 Y69.6354
G01 X78.5835 Y69.6243
G01 X78.5691 Y69.6124
G01 X78.5085 Y69.5597
G01 X78.4951 Y69.5469
G01 X78.4808 Y69.5316
G01 X78.4509 Y69.5661
G01 X78.4384 Y69.5798
G01 X78.4252 Y69.5929
G01 X78.4115 Y69.6053
G01 X78.3971 Y69.6170
G01 X78.3744 Y69.6332
G01 X78.3587 Y69.6430
G01 X78.3342 Y69.6563
G01 X78.3089 Y69.6677
G01 X78.2827 Y69.6771
G01 X78.2057 Y69.6999
G01 X78.1886 Y69.7045
G01 X78.1712 Y69.7083
G01 X78.1448 Y69.7124
G01 X78.1183 Y69.7146
G01 X78.1005 Y69.7150
G01 X59.0595 Y69.7150
G01 X59.0329 Y69.7140
G01 X59.0063 Y69.7112
G01 X58.9801 Y69.7065
G01 X58.9278 Y69.6951
G01 X58.9007 Y69.6881
G01 X58.8829 Y69.6823
G01 X58.8655 Y69.6757
G01 X58.8484 Y69.6682
G01 X58.8317 Y69.6598
G01 X58.8154 Y69.6506
G01 X58.7920 Y69.6354
G01 X58.7770 Y69.6243
G01 X58.7626 Y69.6124
G01 X58.7020 Y69.5597
G01 X58.6886 Y69.5469
G01 X58.6743 Y69.5316
G01 X58.6444 Y69.5661
G01 X58.6319 Y69.5798
G01 X58.6187 Y69.5929
G01 X58.6050 Y69.6053
G01 X58.5832 Y69.6226
G01 X58.5679 Y69.6332
G01 X58.5442 Y69.6476
G01 X58.5277 Y69.6563
G01 X58.5024 Y69.6677
G01 X58.4762 Y69.6771
G01 X58.3992 Y69.6999
G01 X58.3821 Y69.7045
G01 X58.3647 Y69.7083
G01 X58.3383 Y69.7124
G01 X58.3206 Y69.7140
G01 X58.2940 Y69.7150
G01 X38.2260 Y69.7150
G01 X38.1994 Y69.7140
G01 X38.1728 Y69.7112
G01 X38.1466 Y69.7065
G01 X38.0943 Y69.6951
G01 X38.0672 Y69.6881
G01 X38.0494 Y69.6823
G01 X38.0320 Y69.6757
G01 X38.0149 Y69.6682
G01 X37.9982 Y69.6598
G01 X37.9819 Y69.6506
G01 X37.9585 Y69.6354
G01 X37.9435 Y69.6243
G01 X37.9291 Y69.6124
G01 X37.8685 Y69.5597
G01 X37.8551 Y69.5469
G01 X37.8408 Y69.5316
G01 X37.8109 Y69.5661
G01 X37.7984 Y69.5798
G01 X37.7852 Y69.5929
G01 X37.7715 Y69.6053
G01 X37.7497 Y69.6226
G01 X37.7344 Y69.6332
G01 X37.7187 Y69.6430
G01 X37.6942 Y69.6563
G01 X37.6689 Y69.6677
G01 X37.6427 Y69.6771
G01 X37.5657 Y69.6999
G01 X37.5486 Y69.7045
G01 X37.5312 Y69.7083
G01 X37.5048 Y69.7124
G01 X37.4871 Y69.7140
G01 X37.4605 Y69.7150
G01 X0.6345 Y69.7150
G01 X0.6167 Y69.7146
G01 X0.5990 Y69.7133
G01 X0.5813 Y69.7112
G01 X0.5638 Y69.7083
G01 X0.4937 Y69.6930
G01 X0.4757 Y69.6881
G01 X0.4579 Y69.6823
G01 X0.4405 Y69.6757
G01 X0.4234 Y69.6682
G01 X0.3985 Y69.6553
G01 X0.3747 Y69.6407
G01 X0.3520 Y69.6243
G01 X0.3376 Y69.6124
G01 X0.2839 Y69.5659
G01 X0.2702 Y69.5534
G01 X0.2571 Y69.5402
G01 X0.2447 Y69.5265
G01 X0.2330 Y69.5121
G01 X0.2220 Y69.4971
G01 X0.2070 Y69.4737
G01 X0.1937 Y69.4492
G01 X0.1823 Y69.4239
G01 X0.1729 Y69.3977
G01 X0.1501 Y69.3207
G01 X0.1435 Y69.2949
G01 X0.1402 Y69.2774
G01 X0.1376 Y69.2598
G01 X0.1360 Y69.2421
G01 X0.1350 Y69.2155
G01 X0.1350 Y36.9560
G01 X0.1360 Y36.9294
G01 X0.1388 Y36.9028
G01 X0.1435 Y36.8766
G01 X0.1549 Y36.8243
G01 X0.1593 Y36.8061
G01 X0.1647 Y36.7882
G01 X0.1743 Y36.7620
G01 X0.1818 Y36.7449
G01 X0.1902 Y36.7282
G01 X0.2042 Y36.7040
G01 X0.2146 Y36.6885
G01 X0.2257 Y36.6735
G01 X0.2376 Y36.6591
G01 X0.2903 Y36.5985
G01 X0.3031 Y36.5851
G01 X0.3184 Y36.5708
G01 X0.2839 Y36.5409
G01 X0.2702 Y36.5284
G01 X0.2571 Y36.5152
G01 X0.2447 Y36.5015
G01 X0.2330 Y36.4871
G01 X0.2220 Y36.4721
G01 X0.2070 Y36.4487
G01 X0.1980 Y36.4325
G01 X0.1859 Y36.4074
G01 X0.1758 Y36.3815
G01 X0.1701 Y36.3638
G01 X0.1501 Y36.2957
G01 X0.1455 Y36.2786
G01 X0.1402 Y36.2524
G01 X0.1376 Y36.2348
G01 X0.1360 Y36.2171
G00 Z2.0000
G00 X0.2601 Y36.2083
G01 F60.00
G01 Z-0.0355
G01 F120.00
G01 X0.2595 Y36.1905
G01 X0.2595 Y0.6345
G01 X0.2598 Y0.6227
G01 X0.2606 Y0.6108
G01 X0.2629 Y0.5932
G01 X0.2766 Y0.5292
G01 X0.2795 Y0.5171
G01 X0.2851 Y0.4993
G01 X0.2919 Y0.4820
G01 X0.3001 Y0.4652
G01 X0.3095 Y0.4490
G01 X0.3200 Y0.4337
G01 X0.3317 Y0.4191
G01 X0.3823 Y0.3608
G01 X0.3909 Y0.3519
G01 X0.3998 Y0.3434
G01 X0.4092 Y0.3354
G01 X0.4190 Y0.3278
G01 X0.4292 Y0.3207
G01 X0.4397 Y0.3142
G01 X0.4505 Y0.3081
G01 X0.4615 Y0.3027
G01 X0.4786 Y0.2955
G01 X0.4962 Y0.2896
G01 X0.5758 Y0.2665
G01 X0.5874 Y0.2640
G01 X0.6049 Y0.2613
G01 X0.6167 Y0.2601
G01 X0.6345 Y0.2595
G01 X98.4255 Y0.2595
G01 X98.4373 Y0.2598
G01 X98.4492 Y0.2606
G01 X98.4668 Y0.2629
G01 X98.5308 Y0.2766
G01 X98.5429 Y0.2795
G01 X98.5607 Y0.2851
G01 X98.5780 Y0.2919
G01 X98.5948 Y0.3001
G01 X98.6110 Y0.3095
G01 X98.6263 Y0.3200
G01 X98.6409 Y0.3317
G01 X98.6992 Y0.3823
G01 X98.7081 Y0.3909
G01 X98.7166 Y0.3998
G01 X98.7285 Y0.4141
G01 X98.7358 Y0.4241
G01 X98.7426 Y0.4344
G01 X98.7489 Y0.4450
G01 X98.7547 Y0.4560
G01 X98.7599 Y0.4672
G01 X98.7645 Y0.4786
G01 X98.7704 Y0.4962
G01 X98.7935 Y0.5758
G01 X98.7971 Y0.5932
G01 X98.7987 Y0.6049
G01 X98.7999 Y0.6167
G01 X98.8005 Y0.6345
G01 X98.8005 Y36.1905
G01 X98.8002 Y36.2023
G01 X98.7994 Y36.2142
G01 X98.7980 Y36.2259
G01 X98.7960 Y36.2376
G01 X98.7820 Y36.3018
G01 X98.7788 Y36.3138
G01 X98.7749 Y36.3257
G01 X98.7681 Y36.3430
G01 X98.7628 Y36.3543
G01 X98.7569 Y36.3653
G01 X98.7472 Y36.3812
G01 X98.7362 Y36.3963
G01 X98.7283 Y36.4059
G01 X98.6818 Y36.4596
G01 X98.6735 Y36.4687
G01 X98.6647 Y36.4774
G01 X98.6555 Y36.4857
G01 X98.6459 Y36.4935
G01 X98.6359 Y36.5008
G01 X98.6203 Y36.5108
G01 X98.6040 Y36.5197
G01 X98.5871 Y36.5273
G01 X98.5697 Y36.5336
G01 X98.4957 Y36.5554
G01 X98.4842 Y36.5585
G01 X98.4726 Y36.5610
G01 X98.4609 Y36.5630
G01 X98.4433 Y36.5649
G01 X98.4314 Y36.5654
G01 X87.7297 Y36.5655
G01 X87.6203 Y36.5812
G01 X87.5863 Y36.5912
G01 X87.5024 Y36.6295
G01 X87.4312 Y36.6916
G01 X87.4078 Y36.7189
G01 X87.3477 Y36.8140
G01 X82.4746 Y47.7783
G01 X82.4691 Y47.7891
G01 X82.4600 Y47.8047
G01 X82.4534 Y47.8147
G01 X82.4462 Y47.8244
G01 X82.4386 Y47.8338
G01 X82.3915 Y47.8886
G01 X82.3832 Y47.8979
G01 X82.3744 Y47.9067
G01 X82.3651 Y47.9151
G01 X82.3505 Y47.9268
G01 X82.3403 Y47.9339
G01 X82.3297 Y47.9406
G01 X82.3188 Y47.9467
G01 X82.3077 Y47.9522
G01 X82.2962 Y47.9572
G01 X82.2846 Y47.9616
G01 X82.2727 Y47.9654
G01 X82.2046 Y47.9854
G01 X82.1873 Y47.9898
G01 X82.1698 Y47.9930
G01 X82.1581 Y47.9944
G01 X82.1463 Y47.9952
G01 X82.1344 Y47.9955
G01 X16.8523 Y47.9955
G01 X16.8331 Y47.9948
G01 X16.8140 Y47.9925
G01 X16.8014 Y47.9902
G01 X16.7510 Y47.9797
G01 X16.7390 Y47.9769
G01 X16.7273 Y47.9736
G01 X16.7100 Y47.9674
G01 X16.6987 Y47.9626
G01 X16.6877 Y47.9573
G01 X16.6717 Y47.9483
G01 X16.6565 Y47.9381
G01 X16.6467 Y47.9307
G01 X16.5875 Y47.8813
G01 X16.5786 Y47.8735
G01 X16.5660 Y47.8610
G01 X16.5581 Y47.8521
G01 X16.5470 Y47.8382
G01 X16.5402 Y47.8285
G01 X9.1574 Y36.7542
G01 X9.0836 Y36.6719
G01 X9.0565 Y36.6492
G01 X8.9735 Y36.5978
G01 X8.9145 Y36.5790
G01 X8.8892 Y36.5737
G01 X8.8097 Y36.5655
G01 X0.6345 Y36.5655
G01 X0.6227 Y36.5652
G01 X0.6049 Y36.5637
G01 X0.5874 Y36.5610
G01 X0.5232 Y36.5470
G01 X0.5112 Y36.5438
G01 X0.4993 Y36.5399
G01 X0.4877 Y36.5355
G01 X0.4763 Y36.5305
G01 X0.4597 Y36.5219
G01 X0.4490 Y36.5155
G01 X0.4387 Y36.5086
G01 X0.4287 Y36.5012
G01 X0.4191 Y36.4933
G01 X0.3654 Y36.4468
G01 X0.3519 Y36.4341
G01 X0.3434 Y36.4252
G01 X0.3354 Y36.4158
G01 X0.3278 Y36.4060
G01 X0.3207 Y36.3958
G01 X0.3142 Y36.3853
G01 X0.3081 Y36.3745
G01 X0.3027 Y36.3635
G01 X0.2977 Y36.3521
G01 X0.2934 Y36.3405
G01 X0.2896 Y36.3288
G01 X0.2680 Y36.2549
G01 X0.2652 Y36.2434
G01 X0.2629 Y36.2318
G01 X0.2613 Y36.2201
G01 X0.2601 Y36.2083
G00 Z2.0000
G00 X0.3843 Y36.1994
G01 F60.00
G01 Z-0.0355
G01 F120.00
G01 X0.3840 Y36.1905
G01 X0.3840 Y0.6345
G01 X0.3846 Y0.6227
G01 X0.3862 Y0.6109
G01 X0.3997 Y0.5496
G01 X0.4025 Y0.5407
G01 X0.4059 Y0.5321
G01 X0.4100 Y0.5237
G01 X0.4147 Y0.5156
G01 X0.4200 Y0.5079
G01 X0.4258 Y0.5006
G01 X0.4723 Y0.4470
G01 X0.4808 Y0.4380
G01 X0.4902 Y0.4300
G01 X0.5004 Y0.4229
G01 X0.5112 Y0.4169
G01 X0.5225 Y0.4120
G01 X0.5313 Y0.4090
G01 X0.6051 Y0.3875
G01 X0.6197 Y0.3849
G01 X0.6345 Y0.3840
G01 X98.4255 Y0.3840
G01 X98.4373 Y0.3846
G01 X98.4491 Y0.3862
G01 X98.5104 Y0.3997
G01 X98.5193 Y0.4025
G01 X98.5279 Y0.4059
G01 X98.5363 Y0.4100
G01 X98.5444 Y0.4147
G01 X98.5521 Y0.4200
G01 X98.5594 Y0.4258
G01 X98.6130 Y0.4723
G01 X98.6220 Y0.4808
G01 X98.6300 Y0.4902
G01 X98.6371 Y0.5004
G01 X98.6431 Y0.5112
G01 X98.6480 Y0.5225
G01 X98.6510 Y0.5313
G01 X98.6725 Y0.6051
G01 X98.6751 Y0.6197
G01 X98.6760 Y0.6345
G01 X98.6760 Y36.1905
G01 X98.6754 Y36.2023
G01 X98.6738 Y36.2141
G01 X98.6611 Y36.2723
G01 X98.6575 Y36.2843
G01 X98.6541 Y36.2929
G01 X98.6485 Y36.3041
G01 X98.6436 Y36.3120
G01 X98.6362 Y36.3220
G01 X98.5857 Y36.3803
G01 X98.5769 Y36.3891
G01 X98.5648 Y36.3987
G01 X98.5570 Y36.4037
G01 X98.5488 Y36.4081
G01 X98.5404 Y36.4119
G01 X98.5317 Y36.4150
G01 X98.4549 Y36.4375
G01 X98.4432 Y36.4397
G01 X98.4285 Y36.4410
G01 X87.7208 Y36.4410
G01 X87.5937 Y36.4593
G01 X87.5427 Y36.4742
G01 X87.4343 Y36.5238
G01 X87.3426 Y36.6036
G01 X87.3074 Y36.6447
G01 X87.2376 Y36.7551
G01 X82.3633 Y47.7222
G01 X82.3564 Y47.7356
G01 X82.3479 Y47.7481
G01 X82.2929 Y47.8122
G01 X82.2838 Y47.8208
G01 X82.2714 Y47.8302
G01 X82.2607 Y47.8366
G01 X82.2465 Y47.8430
G01 X82.2376 Y47.8460
G01 X82.1638 Y47.8675
G01 X82.1492 Y47.8701
G01 X82.1344 Y47.8710
G01 X16.8523 Y47.8710
G01 X16.8363 Y47.8700
G01 X16.8268 Y47.8684
G01 X16.7704 Y47.8565
G01 X16.7559 Y47.8517
G01 X16.7475 Y47.8480
G01 X16.7394 Y47.8437
G01 X16.7317 Y47.8388
G01 X16.7243 Y47.8334
G01 X16.6652 Y47.7839
G01 X16.6588 Y47.7778
G01 X16.6528 Y47.7713
G01 X16.6438 Y47.7595
G01 X9.2560 Y36.6777
G01 X9.1703 Y36.5822
G01 X9.1296 Y36.5480
G01 X9.0259 Y36.4839
G01 X8.9462 Y36.4584
G01 X8.9083 Y36.4505
G01 X8.8162 Y36.4410
G01 X0.6286 Y36.4409
G01 X0.6197 Y36.4401
G01 X0.6109 Y36.4388
G01 X0.5527 Y36.4261
G01 X0.5407 Y36.4225
G01 X0.5264 Y36.4164
G01 X0.5130 Y36.4086
G01 X0.5030 Y36.4012
G01 X0.4470 Y36.3527
G01 X0.4402 Y36.3464
G01 X0.4319 Y36.3372
G01 X0.4229 Y36.3246
G01 X0.4169 Y36.3138
G01 X0.4120 Y36.3025
G01 X0.4090 Y36.2937
G01 X0.3882 Y36.2227
G01 X0.3857 Y36.2111
G01 X0.3843 Y36.1994
G00 Z2.0000
M05
G00 Z2.0000
G00 Z15.00


