(G-CODE GENERATED BY FLATCAM v8.994 - www.flatcam.org - Version Date: 2020/11/7)

(Name: impedance_testboard.drl_cnc)
(Type: G-code from Geometry)
(Units: MM)

(Created on Wednesday, 13 April 2022 at 08:02)

(This preprocessor is the default preprocessor used by FlatCAM.)
(It is made to work with MACH3 compatible motion controllers.)


(TOOLS DIAMETER: )
(Tool: 1 -> Dia: 1.0)
(Tool: 2 -> Dia: 1.0)
(Tool: 3 -> Dia: 1.0)
(Tool: 4 -> Dia: 1.0)

(FEEDRATE Z: )
(Tool: 1 -> Feedrate: 300)
(Tool: 2 -> Feedrate: 300)
(Tool: 3 -> Feedrate: 300)
(Tool: 4 -> Feedrate: 300)

(FEEDRATE RAPIDS: )
(Tool: 1 -> Feedrate Rapids: 1500)
(Tool: 2 -> Feedrate Rapids: 1500)
(Tool: 3 -> Feedrate Rapids: 1500)
(Tool: 4 -> Feedrate Rapids: 1500)

(Z_CUT: )
(Tool: 1 -> Z_Cut: -3.5000000000000013)
(Tool: 2 -> Z_Cut: -3.5000000000000013)
(Tool: 3 -> Z_Cut: -3.5000000000000013)
(Tool: 4 -> Z_Cut: -3.5000000000000013)

(Tools Offset: )
(Tool: 4 -> Offset Z: 0.0)

(Z_MOVE: )
(Tool: 1 -> Z_Move: 2)
(Tool: 2 -> Z_Move: 2)
(Tool: 3 -> Z_Move: 2)
(Tool: 4 -> Z_Move: 2)

(Z Toolchange: 15 mm)
(X,Y Toolchange: 0.0000, 0.0000 mm)
(Z Start: None mm)
(Z End: 0.5 mm)
(X,Y End: None mm)
(Steps per circle: 64)
(Preprocessor Excellon: default)

(X range:    3.3100 ...   95.7500  mm)
(Y range:    3.3100 ...   66.5400  mm)

(Spindle Speed: 0 RPM)
G21
G90
G94

G01 F300.00

M5
G00 Z15.0000
T1
G00 X0.0000 Y0.0000                
M6
(MSG, Change to Tool Dia = 1.0000 ||| Total drills for tool T1 = 54)
M0
G00 Z15.0000

G01 F300.00
M03
G00 X29.2100 Y57.1500
G01 Z-3.5000
G01 Z0
G00 Z2.0000
G00 X29.2100 Y57.1500
G01 Z-3.5000
G01 Z0
G00 Z2.0000
G00 X27.9400 Y66.0400
G01 Z-3.5000
G01 Z0
G00 Z2.0000
G00 X27.9400 Y66.0400
G01 Z-3.5000
G01 Z0
G00 Z2.0000
G00 X30.4800 Y66.0400
G01 Z-3.5000
G01 Z0
G00 Z2.0000
G00 X30.4800 Y66.0400
G01 Z-3.5000
G01 Z0
G00 Z2.0000
G00 X41.9100 Y66.0400
G01 Z-3.5000
G01 Z0
G00 Z2.0000
G00 X41.9100 Y66.0400
G01 Z-3.5000
G01 Z0
G00 Z2.0000
G00 X44.4500 Y66.0400
G01 Z-3.5000
G01 Z0
G00 Z2.0000
G00 X44.4500 Y66.0400
G01 Z-3.5000
G01 Z0
G00 Z2.0000
G00 X52.0700 Y66.0400
G01 Z-3.5000
G01 Z0
G00 Z2.0000
G00 X52.0700 Y66.0400
G01 Z-3.5000
G01 Z0
G00 Z2.0000
G00 X54.6100 Y66.0400
G01 Z-3.5000
G01 Z0
G00 Z2.0000
G00 X54.6100 Y66.0400
G01 Z-3.5000
G01 Z0
G00 Z2.0000
G00 X62.2300 Y66.0400
G01 Z-3.5000
G01 Z0
G00 Z2.0000
G00 X62.2300 Y66.0400
G01 Z-3.5000
G01 Z0
G00 Z2.0000
G00 X64.7700 Y66.0400
G01 Z-3.5000
G01 Z0
G00 Z2.0000
G00 X64.7700 Y66.0400
G01 Z-3.5000
G01 Z0
G00 Z2.0000
G00 X72.3900 Y66.0400
G01 Z-3.5000
G01 Z0
G00 Z2.0000
G00 X72.3900 Y66.0400
G01 Z-3.5000
G01 Z0
G00 Z2.0000
G00 X74.9300 Y66.0400
G01 Z-3.5000
G01 Z0
G00 Z2.0000
G00 X74.9300 Y66.0400
G01 Z-3.5000
G01 Z0
G00 Z2.0000
G00 X82.5500 Y66.0400
G01 Z-3.5000
G01 Z0
G00 Z2.0000
G00 X82.5500 Y66.0400
G01 Z-3.5000
G01 Z0
G00 Z2.0000
G00 X85.0900 Y66.0400
G01 Z-3.5000
G01 Z0
G00 Z2.0000
G00 X85.0900 Y66.0400
G01 Z-3.5000
G01 Z0
G00 Z2.0000
G00 X92.7100 Y66.0400
G01 Z-3.5000
G01 Z0
G00 Z2.0000
G00 X92.7100 Y66.0400
G01 Z-3.5000
G01 Z0
G00 Z2.0000
G00 X95.2500 Y66.0400
G01 Z-3.5000
G01 Z0
G00 Z2.0000
G00 X95.2500 Y66.0400
G01 Z-3.5000
G01 Z0
G00 Z2.0000
G00 X93.9800 Y55.8800
G01 Z-3.5000
G01 Z0
G00 Z2.0000
G00 X93.9800 Y55.8800
G01 Z-3.5000
G01 Z0
G00 Z2.0000
G00 X93.9800 Y53.3400
G01 Z-3.5000
G01 Z0
G00 Z2.0000
G00 X93.9800 Y53.3400
G01 Z-3.5000
G01 Z0
G00 Z2.0000
G00 X93.9800 Y45.7200
G01 Z-3.5000
G01 Z0
G00 Z2.0000
G00 X93.9800 Y45.7200
G01 Z-3.5000
G01 Z0
G00 Z2.0000
G00 X93.9800 Y43.1800
G01 Z-3.5000
G01 Z0
G00 Z2.0000
G00 X93.9800 Y43.1800
G01 Z-3.5000
G01 Z0
G00 Z2.0000
G00 X88.9000 Y40.0050
G01 Z-3.5000
G01 Z0
G00 Z2.0000
G00 X88.9000 Y40.0050
G01 Z-3.5000
G01 Z0
G00 Z2.0000
G00 X93.9800 Y29.2100
G01 Z-3.5000
G01 Z0
G00 Z2.0000
G00 X93.9800 Y29.2100
G01 Z-3.5000
G01 Z0
G00 Z2.0000
G00 X93.9800 Y26.6700
G01 Z-3.5000
G01 Z0
G00 Z2.0000
G00 X93.9800 Y26.6700
G01 Z-3.5000
G01 Z0
G00 Z2.0000
G00 X93.9800 Y19.0500
G01 Z-3.5000
G01 Z0
G00 Z2.0000
G00 X93.9800 Y19.0500
G01 Z-3.5000
G01 Z0
G00 Z2.0000
G00 X93.9800 Y16.5100
G01 Z-3.5000
G01 Z0
G00 Z2.0000
G00 X93.9800 Y16.5100
G01 Z-3.5000
G01 Z0
G00 Z2.0000
G00 X95.2500 Y3.8100
G01 Z-3.5000
G01 Z0
G00 Z2.0000
G00 X95.2500 Y3.8100
G01 Z-3.5000
G01 Z0
G00 Z2.0000
G00 X92.7100 Y3.8100
G01 Z-3.5000
G01 Z0
G00 Z2.0000
G00 X92.7100 Y3.8100
G01 Z-3.5000
G01 Z0
G00 Z2.0000
G00 X80.0100 Y6.4700
G01 Z-3.5000
G01 Z0
G00 Z2.0000
G00 X80.0100 Y6.4700
G01 Z-3.5000
G01 Z0
G00 Z2.0000
G00 X80.0100 Y13.9700
G01 Z-3.5000
G01 Z0
G00 Z2.0000
G00 X80.0100 Y13.9700
G01 Z-3.5000
G01 Z0
G00 Z2.0000
G00 X69.8500 Y20.3200
G01 Z-3.5000
G01 Z0
G00 Z2.0000
G00 X69.8500 Y20.3200
G01 Z-3.5000
G01 Z0
G00 Z2.0000
G00 X80.0100 Y26.6100
G01 Z-3.5000
G01 Z0
G00 Z2.0000
G00 X80.0100 Y26.6100
G01 Z-3.5000
G01 Z0
G00 Z2.0000
G00 X80.0100 Y34.1100
G01 Z-3.5000
G01 Z0
G00 Z2.0000
G00 X80.0100 Y34.1100
G01 Z-3.5000
G01 Z0
G00 Z2.0000
G00 X69.8500 Y40.0050
G01 Z-3.5000
G01 Z0
G00 Z2.0000
G00 X69.8500 Y40.0050
G01 Z-3.5000
G01 Z0
G00 Z2.0000
G00 X80.0100 Y45.8400
G01 Z-3.5000
G01 Z0
G00 Z2.0000
G00 X80.0100 Y45.8400
G01 Z-3.5000
G01 Z0
G00 Z2.0000
G00 X80.0100 Y53.3400
G01 Z-3.5000
G01 Z0
G00 Z2.0000
G00 X80.0100 Y53.3400
G01 Z-3.5000
G01 Z0
G00 Z2.0000
G00 X69.8500 Y57.1500
G01 Z-3.5000
G01 Z0
G00 Z2.0000
G00 X69.8500 Y57.1500
G01 Z-3.5000
G01 Z0
G00 Z2.0000
G00 X59.6900 Y53.2800
G01 Z-3.5000
G01 Z0
G00 Z2.0000
G00 X59.6900 Y53.2800
G01 Z-3.5000
G01 Z0
G00 Z2.0000
G00 X49.5300 Y57.1500
G01 Z-3.5000
G01 Z0
G00 Z2.0000
G00 X49.5300 Y57.1500
G01 Z-3.5000
G01 Z0
G00 Z2.0000
G00 X39.3700 Y53.3400
G01 Z-3.5000
G01 Z0
G00 Z2.0000
G00 X39.3700 Y53.3400
G01 Z-3.5000
G01 Z0
G00 Z2.0000
G00 X39.3700 Y45.8400
G01 Z-3.5000
G01 Z0
G00 Z2.0000
G00 X39.3700 Y45.8400
G01 Z-3.5000
G01 Z0
G00 Z2.0000
G00 X49.5300 Y40.0050
G01 Z-3.5000
G01 Z0
G00 Z2.0000
G00 X49.5300 Y40.0050
G01 Z-3.5000
G01 Z0
G00 Z2.0000
G00 X59.6900 Y45.7800
G01 Z-3.5000
G01 Z0
G00 Z2.0000
G00 X59.6900 Y45.7800
G01 Z-3.5000
G01 Z0
G00 Z2.0000
G00 X59.6900 Y34.1100
G01 Z-3.5000
G01 Z0
G00 Z2.0000
G00 X59.6900 Y34.1100
G01 Z-3.5000
G01 Z0
G00 Z2.0000
G00 X59.6900 Y26.6100
G01 Z-3.5000
G01 Z0
G00 Z2.0000
G00 X59.6900 Y26.6100
G01 Z-3.5000
G01 Z0
G00 Z2.0000
G00 X49.5300 Y20.3200
G01 Z-3.5000
G01 Z0
G00 Z2.0000
G00 X49.5300 Y20.3200
G01 Z-3.5000
G01 Z0
G00 Z2.0000
G00 X59.6900 Y13.9700
G01 Z-3.5000
G01 Z0
G00 Z2.0000
G00 X59.6900 Y13.9700
G01 Z-3.5000
G01 Z0
G00 Z2.0000
G00 X59.6900 Y6.4700
G01 Z-3.5000
G01 Z0
G00 Z2.0000
G00 X59.6900 Y6.4700
G01 Z-3.5000
G01 Z0
G00 Z2.0000
G00 X39.3700 Y6.4100
G01 Z-3.5000
G01 Z0
G00 Z2.0000
G00 X39.3700 Y6.4100
G01 Z-3.5000
G01 Z0
G00 Z2.0000
G00 X39.3700 Y13.9100
G01 Z-3.5000
G01 Z0
G00 Z2.0000
G00 X39.3700 Y13.9100
G01 Z-3.5000
G01 Z0
G00 Z2.0000
G00 X39.3700 Y26.6100
G01 Z-3.5000
G01 Z0
G00 Z2.0000
G00 X39.3700 Y26.6100
G01 Z-3.5000
G01 Z0
G00 Z2.0000
G00 X39.3700 Y34.1100
G01 Z-3.5000
G01 Z0
G00 Z2.0000
G00 X39.3700 Y34.1100
G01 Z-3.5000
G01 Z0
G00 Z2.0000
G00 X29.2100 Y40.0050
G01 Z-3.5000
G01 Z0
G00 Z2.0000
G00 X29.2100 Y40.0050
G01 Z-3.5000
G01 Z0
G00 Z2.0000
G00 X19.0500 Y34.1100
G01 Z-3.5000
G01 Z0
G00 Z2.0000
G00 X19.0500 Y34.1100
G01 Z-3.5000
G01 Z0
G00 Z2.0000
G00 X19.0500 Y26.6100
G01 Z-3.5000
G01 Z0
G00 Z2.0000
G00 X19.0500 Y26.6100
G01 Z-3.5000
G01 Z0
G00 Z2.0000
G00 X29.2100 Y20.3200
G01 Z-3.5000
G01 Z0
G00 Z2.0000
G00 X29.2100 Y20.3200
G01 Z-3.5000
G01 Z0
G00 Z2.0000
G00 X19.0500 Y13.9100
G01 Z-3.5000
G01 Z0
G00 Z2.0000
G00 X19.0500 Y13.9100
G01 Z-3.5000
G01 Z0
G00 Z2.0000
G00 X19.0500 Y6.4100
G01 Z-3.5000
G01 Z0
G00 Z2.0000
G00 X19.0500 Y6.4100
G01 Z-3.5000
G01 Z0
G00 Z2.0000
G00 X6.3500 Y3.8100
G01 Z-3.5000
G01 Z0
G00 Z2.0000
G00 X6.3500 Y3.8100
G01 Z-3.5000
G01 Z0
G00 Z2.0000
G00 X3.8100 Y3.8100
G01 Z-3.5000
G01 Z0
G00 Z2.0000
G00 X3.8100 Y3.8100
G01 Z-3.5000
G01 Z0
G00 Z2.0000
G00 X6.3500 Y32.7280
G01 Z-3.5000
G01 Z0
G00 Z2.0000
G00 X6.3500 Y32.7280
G01 Z-3.5000
G01 Z0
G00 Z2.0000
G00 X6.3500 Y39.0780
G01 Z-3.5000
G01 Z0
G00 Z2.0000
G00 X6.3500 Y39.0780
G01 Z-3.5000
G01 Z0
G00 Z2.0000
G00 X19.0500 Y45.8400
G01 Z-3.5000
G01 Z0
G00 Z2.0000
G00 X19.0500 Y45.8400
G01 Z-3.5000
G01 Z0
G00 Z2.0000
G00 X19.0500 Y53.3400
G01 Z-3.5000
G01 Z0
G00 Z2.0000
G00 X19.0500 Y53.3400
G01 Z-3.5000
G01 Z0
G00 Z2.0000
G00 X6.3500 Y66.0400
G01 Z-3.5000
G01 Z0
G00 Z2.0000
G00 X6.3500 Y66.0400
G01 Z-3.5000
G01 Z0
G00 Z2.0000
G00 X3.8100 Y66.0400
G01 Z-3.5000
G01 Z0
G00 Z2.0000
G00 X3.8100 Y66.0400
G01 Z-3.5000
G01 Z0
G00 Z2.0000
M05
G00 Z0.50


